; generated by PrusaSlicer 2.5.0+linux-x64-GTK3 on 2023-01-20 at 15:46:10 UTC

; 

; external perimeters extrusion width = 0.42mm
; perimeters extrusion width = 0.44mm
; infill extrusion width = 0.44mm
; solid infill extrusion width = 0.44mm
; top infill extrusion width = 0.40mm
; first layer extrusion width = 0.42mm

M107
;TYPE:Custom
G90 ; use absolute coordinates
M83 ; extruder relative mode
M140 S70 ; set final bed temp
M104 S150 ; set temporary nozzle temp to prevent oozing during homing and auto bed leveling
G4 S10 ; allow partial nozzle warmup
G28 ; home all axis
G29 ; auto bed levelling
G1 Z50 F240
G1 X2 Y10 F3000
M104 S205 ; set final nozzle temp
M190 S70 ; wait for bed temp to stabilize
M109 S205 ; wait for nozzle temp to stabilize
G1 Z0.28 F240
G92 E0
G1 Y140 E10 F1500 ; prime the nozzle
G1 X2.3 F5000
G92 E0
G1 Y10 E10 F1200 ; prime the nozzle
G92 E0
G21 ; set units to millimeters
G90 ; use absolute coordinates
M83 ; use relative distances for extrusion
; Filament gcode
M107
;LAYER_CHANGE
;Z:0.08
;HEIGHT:0.08
;BEFORE_LAYER_CHANGE
G92 E0
;0.08


G1 E-5 F3600
G1 Z.08 F9000
;AFTER_LAYER_CHANGE
;0.08
G1 X82.9 Y81.692
G1 E5 F2400
M204 S500
;TYPE:Skirt/Brim
;WIDTH:0.42
G1 F1200
G1 X83.692 Y80.9 E.015
G1 X84.358 Y80.368 E.01142
G1 X85.306 Y79.773 E.015
G1 X86.074 Y79.403 E.01142
G1 X87.13 Y79.033 E.015
G1 X87.961 Y78.844 E.01142
G1 X89.074 Y78.718 E.015
G1 X129.926 Y78.718 E.54735
G1 X131.039 Y78.844 E.015
G1 X131.87 Y79.033 E.01142
G1 X132.926 Y79.403 E.015
G1 X133.694 Y79.773 E.01142
G1 X134.642 Y80.368 E.015
G1 X135.308 Y80.9 E.01142
G1 X136.1 Y81.692 E.015
G1 X136.632 Y82.358 E.01142
G1 X137.227 Y83.306 E.015
G1 X137.597 Y84.074 E.01142
G1 X137.967 Y85.13 E.015
G1 X138.156 Y85.961 E.01142
G1 X139.306 Y97 E.1487
G1 X139.3 Y114.205 E.23052
G1 X138.3 Y132.705 E.24823
G1 X138.156 Y134.039 E.01797
G1 X137.967 Y134.87 E.01142
G1 X137.597 Y135.926 E.015
G1 X137.227 Y136.694 E.01142
G1 X136.632 Y137.642 E.015
G1 X136.1 Y138.308 E.01142
G1 X135.308 Y139.1 E.015
G1 X134.642 Y139.632 E.01142
G1 X133.694 Y140.227 E.015
G1 X132.926 Y140.597 E.01142
G1 X131.87 Y140.967 E.015
G1 X131.039 Y141.156 E.01142
G1 X129.5 Y141.306 E.02071
G1 X89.5 Y141.306 E.53593
G1 X87.961 Y141.156 E.02071
G1 X87.13 Y140.967 E.01142
G1 X86.074 Y140.597 E.015
G1 X85.306 Y140.227 E.01142
G1 X84.358 Y139.632 E.015
G1 X83.692 Y139.1 E.01142
G1 X82.9 Y138.308 E.015
G1 X82.368 Y137.642 E.01142
G1 X81.773 Y136.694 E.015
G1 X81.403 Y135.926 E.01142
G1 X81.033 Y134.87 E.015
G1 X80.844 Y134.039 E.01142
G1 X80.694 Y132.5 E.02071
G1 X80.694 Y87.5 E.60292
G1 X80.844 Y85.961 E.02071
G1 X81.033 Y85.13 E.01142
G1 X81.403 Y84.074 E.015
G1 X81.773 Y83.306 E.01142
G1 X82.368 Y82.358 E.015
G1 X82.862 Y81.738 E.01061
G1 X83.175 Y81.988 F9000
G1 F1200
G1 X83.976 Y81.185 E.0152
G1 X84.572 Y80.71 E.01021
G1 X85.52 Y80.114 E.015
G1 X86.207 Y79.783 E.01021
G1 X87.264 Y79.413 E.015
G1 X88.006 Y79.244 E.01021
G1 X89.119 Y79.119 E.015
G1 X129.881 Y79.119 E.54614
G1 X130.994 Y79.244 E.015
G1 X131.736 Y79.413 E.01021
G1 X132.793 Y79.783 E.015
G1 X133.48 Y80.114 E.01021
G1 X134.428 Y80.71 E.015
G1 X135.024 Y81.185 E.01021
G1 X135.815 Y81.976 E.015
G1 X136.85 Y83.463 E.02427
G1 X137.217 Y84.207 E.0111
G1 X137.587 Y85.264 E.015
G1 X137.756 Y86.006 E.01021
G1 X138.903 Y97 E.14809
G1 X138.898 Y114.184 E.23023
G1 X137.881 Y132.881 E.25088
G1 X137.756 Y133.994 E.015
G1 X137.587 Y134.736 E.01021
G1 X137.217 Y135.793 E.015
G1 X136.886 Y136.48 E.01021
G1 X136.29 Y137.428 E.015
G1 X135.815 Y138.024 E.01021
G1 X135.024 Y138.815 E.015
G1 X134.428 Y139.29 E.01021
G1 X133.48 Y139.886 E.015
G1 X132.793 Y140.217 E.01021
G1 X131.736 Y140.587 E.015
G1 X130.994 Y140.756 E.01021
G1 X129.5 Y140.903 E.02011
G1 X89.5 Y140.903 E.53593
G1 X88.006 Y140.756 E.02011
G1 X87.264 Y140.587 E.01021
G1 X86.207 Y140.217 E.015
G1 X85.52 Y139.886 E.01021
G1 X84.572 Y139.29 E.015
G1 X83.976 Y138.815 E.01021
G1 X83.185 Y138.024 E.015
G1 X82.71 Y137.428 E.01021
G1 X82.114 Y136.48 E.015
G1 X81.783 Y135.793 E.01021
G1 X81.413 Y134.736 E.015
G1 X81.244 Y133.994 E.01021
G1 X81.097 Y132.5 E.02011
G1 X81.097 Y87.5 E.60292
G1 X81.244 Y86.006 E.02011
G1 X81.413 Y85.264 E.01021
G1 X81.783 Y84.207 E.015
G1 X82.114 Y83.52 E.01021
G1 X82.71 Y82.572 E.015
G1 X83.138 Y82.035 E.00921
G1 E-3.5 F3600
;WIPE_START
G1 F7200
G1 X83.976 Y81.185 E-.5672
G1 X84.572 Y80.71 E-.36194
G1 X85.456 Y80.154 E-.49586
;WIPE_END
G1 E-.075 F3600
G1 X87.609 Y90.69 F9000
G1 E5 F2400
;TYPE:External perimeter
;WIDTH:0.419999
G1 F1200
G1 X84.81 Y90.69 E.0375
G1 X84.81 Y87.517 E.04251
G1 X84.929 Y86.457 E.0143
G1 X85.276 Y85.466 E.01407
G1 X85.835 Y84.577 E.01407
G1 X86.577 Y83.835 E.01407
G1 X87.466 Y83.276 E.01407
G1 X88.457 Y82.929 E.01407
G1 X89.517 Y82.81 E.0143
G1 X129.483 Y82.81 E.53546
G1 X130.543 Y82.929 E.0143
G1 X131.534 Y83.276 E.01407
G1 X132.423 Y83.835 E.01407
G1 X133.165 Y84.577 E.01407
G1 X133.724 Y85.466 E.01407
G1 X134.071 Y86.457 E.01407
G1 X134.19 Y87.517 E.0143
G1 X134.19 Y97.1 E.12839
G1 X134.239 Y97.24 E.002
G1 X134.391 Y97.31 E.00224
G1 X135.19 Y97.31 E.0107
G1 X135.19 Y113.69 E.21946
G1 X134.391 Y113.69 E.0107
G1 X134.243 Y113.755 E.00217
G1 X134.19 Y113.891 E.00196
G1 X134.19 Y132.483 E.24909
G1 X134.071 Y133.543 E.0143
G1 X133.724 Y134.534 E.01407
G1 X133.165 Y135.423 E.01407
G1 X132.423 Y136.165 E.01407
G1 X131.534 Y136.724 E.01407
G1 X130.543 Y137.071 E.01407
G1 X129.483 Y137.19 E.0143
G1 X89.517 Y137.19 E.53546
G1 X88.457 Y137.071 E.0143
G1 X87.466 Y136.724 E.01407
G1 X86.577 Y136.165 E.01407
G1 X85.835 Y135.423 E.01407
G1 X85.276 Y134.534 E.01407
G1 X84.929 Y133.543 E.01407
G1 X84.81 Y132.483 E.0143
G1 X84.81 Y129.31 E.04251
G1 X87.609 Y129.31 E.0375
G1 X87.753 Y129.249 E.0021
G1 X87.81 Y129.109 E.00203
G1 X87.81 Y90.891 E.51204
G1 X87.753 Y90.751 E.00203
G1 X87.664 Y90.713 E.00129
G1 X89.228 Y89.541 F9000
G1 F1200
G1 X88.747 Y89.417 E.00665
G1 X88.31 Y89.181 E.00665
G1 X87.942 Y88.847 E.00665
G1 X87.665 Y88.436 E.00665
G1 X87.495 Y87.969 E.00665
G1 X87.441 Y87.524 E.00601
G1 X87.497 Y87.014 E.00687
G1 X87.683 Y86.529 E.00697
G1 X87.975 Y86.116 E.00677
G1 X88.35 Y85.791 E.00665
G1 X88.792 Y85.566 E.00665
G1 X89.276 Y85.453 E.00665
G1 X89.772 Y85.459 E.00665
G1 X90.253 Y85.583 E.00665
G1 X90.69 Y85.819 E.00665
G1 X91.058 Y86.153 E.00665
G1 X91.335 Y86.564 E.00665
G1 X91.505 Y87.031 E.00665
G1 X91.559 Y87.524 E.00665
G1 X91.494 Y88.016 E.00665
G1 X91.312 Y88.479 E.00665
G1 X91.025 Y88.884 E.00665
G1 X90.624 Y89.222 E.00703
G1 X90.208 Y89.434 E.00626
G1 X89.724 Y89.547 E.00665
G1 X89.288 Y89.542 E.00585
G1 E-3.5 F3600
;WIPE_START
G1 F7200
G1 X88.747 Y89.417 E-.26359
G1 X88.31 Y89.181 E-.23583
G1 X87.942 Y88.847 E-.23583
G1 X87.665 Y88.436 E-.23583
G1 X87.495 Y87.969 E-.23583
G1 X87.441 Y87.524 E-.21292
G1 X87.442 Y87.513 E-.00517
;WIPE_END
G1 E-.075 F3600
G1 X93.191 Y91.023 F9000
G1 E5 F2400
G1 F1200
G1 X93.331 Y89.729 E.01743
G1 X93.756 Y88.499 E.01744
G1 X94.444 Y87.396 E.01742
G1 X94.963 Y86.87 E.0099
G1 X95.396 Y86.444 E.00813
G1 X96.5 Y85.756 E.01743
G1 X97.729 Y85.331 E.01743
G1 X98.994 Y85.19 E.01705
G1 X121.005 Y85.19 E.29491
G1 X122.265 Y85.33 E.01698
G1 X123.49 Y85.752 E.01736
G1 X124.591 Y86.435 E.01736
G1 X125.249 Y87.084 E.01239
G1 X125.595 Y87.456 E.0068
G1 X126.21 Y88.436 E.01551
G1 X126.66 Y89.69 E.01785
G1 X126.809 Y90.985 E.01746
G1 X126.657 Y92.321 E.01801
G1 X126.241 Y93.505 E.01681
G1 X125.553 Y94.608 E.01742
G1 X125.094 Y95.074 E.00877
G1 X124.628 Y95.533 E.00876
G1 X123.498 Y96.245 E.01789
G1 X122.314 Y96.659 E.01682
G1 X121.006 Y96.81 E.01763
G1 X98.994 Y96.81 E.29492
G1 X97.729 Y96.669 E.01705
G1 X96.459 Y96.224 E.01803
G1 X95.396 Y95.556 E.01683
G1 X94.472 Y94.64 E.01743
G1 X93.756 Y93.5 E.01803
G1 X93.341 Y92.315 E.01683
G1 X93.197 Y91.082 E.01663
G1 E-3.5 F3600
;WIPE_START
G1 F7200
G1 X93.331 Y89.729 E-.64577
G1 X93.756 Y88.499 E-.61838
G1 X93.936 Y88.211 E-.16085
;WIPE_END
G1 E-.075 F3600
G1 X129.772 Y85.459 F9000
G1 E5 F2400
G1 F1200
G1 X130.349 Y85.633 E.00807
G1 X130.727 Y85.852 E.00586
G1 X131.058 Y86.153 E.00598
G1 X131.335 Y86.564 E.00665
G1 X131.505 Y87.031 E.00665
G1 X131.559 Y87.524 E.00665
G1 X131.494 Y88.016 E.00665
G1 X131.312 Y88.479 E.00665
G1 X131.025 Y88.884 E.00665
G1 X130.65 Y89.209 E.00665
G1 X130.208 Y89.434 E.00665
G1 X129.724 Y89.547 E.00665
G1 X129.228 Y89.541 E.00665
G1 X128.747 Y89.417 E.00665
G1 X128.31 Y89.181 E.00665
G1 X127.942 Y88.847 E.00665
G1 X127.665 Y88.436 E.00665
G1 X127.495 Y87.969 E.00665
G1 X127.441 Y87.524 E.00601
G1 X127.496 Y87.021 E.00678
G1 X127.688 Y86.521 E.00717
G1 X127.975 Y86.116 E.00665
G1 X128.35 Y85.791 E.00665
G1 X128.792 Y85.566 E.00665
G1 X129.276 Y85.453 E.00665
G1 X129.712 Y85.458 E.00585
G1 E-3.5 F3600
;WIPE_START
G1 F7200
G1 X130.349 Y85.633 E-.31349
G1 X130.727 Y85.852 E-.2077
G1 X131.058 Y86.153 E-.21213
G1 X131.335 Y86.564 E-.23583
G1 X131.505 Y87.031 E-.23583
G1 X131.556 Y87.491 E-.22002
;WIPE_END
G1 E-.075 F3600
G1 X127.526 Y127.103 F9000
G1 E5 F2400
G1 F1200
G1 X127.101 Y126.859 E.00656
G1 X126.82 Y126.602 E.00511
G1 X126.572 Y126.226 E.00602
G1 X126.427 Y125.829 E.00566
G1 X126.381 Y125.444 E.0052
G1 X126.439 Y124.963 E.00649
G1 X126.599 Y124.558 E.00585
G1 X126.852 Y124.202 E.00584
G1 X127.182 Y123.917 E.00584
G1 X127.571 Y123.72 E.00584
G1 X127.998 Y123.621 E.00588
G1 X128.451 Y123.631 E.00607
G1 X128.854 Y123.737 E.00558
G1 X129.238 Y123.945 E.00584
G1 X129.56 Y124.238 E.00584
G1 X129.803 Y124.601 E.00584
G1 X129.953 Y125.011 E.00584
G1 X129.999 Y125.444 E.00584
G1 X129.941 Y125.877 E.00584
G1 X129.781 Y126.282 E.00584
G1 X129.526 Y126.64 E.00588
G1 X129.181 Y126.932 E.00607
G1 X128.809 Y127.12 E.00558
G1 X128.384 Y127.219 E.00584
G1 X127.902 Y127.202 E.00647
G1 X127.584 Y127.118 E.0044
G1 E-3.5 F3600
;WIPE_START
G1 F7200
G1 X127.101 Y126.859 E-.26028
G1 X126.82 Y126.602 E-.18114
G1 X126.572 Y126.226 E-.21357
G1 X126.427 Y125.829 E-.20067
G1 X126.381 Y125.444 E-.18429
G1 X126.439 Y124.963 E-.23007
G1 X126.559 Y124.66 E-.15497
;WIPE_END
G1 E-.075 F3600
G1 X130.69 Y130.819 F9000
G1 E5 F2400
G1 F1200
G1 X131.058 Y131.153 E.00665
G1 X131.335 Y131.564 E.00665
G1 X131.505 Y132.031 E.00665
G1 X131.559 Y132.524 E.00665
G1 X131.494 Y133.016 E.00665
G1 X131.312 Y133.479 E.00665
G1 X131.025 Y133.884 E.00665
G1 X130.65 Y134.209 E.00665
G1 X130.208 Y134.434 E.00665
G1 X129.724 Y134.547 E.00665
G1 X129.228 Y134.541 E.00665
G1 X128.747 Y134.417 E.00665
G1 X128.31 Y134.181 E.00665
G1 X127.942 Y133.847 E.00665
G1 X127.662 Y133.427 E.00677
G1 X127.495 Y132.969 E.00653
G1 X127.441 Y132.524 E.00601
G1 X127.497 Y132.017 E.00684
G1 X127.68 Y131.534 E.00692
G1 X127.975 Y131.116 E.00685
G1 X128.35 Y130.791 E.00665
G1 X128.792 Y130.566 E.00665
G1 X129.276 Y130.453 E.00665
G1 X129.772 Y130.459 E.00665
G1 X130.342 Y130.63 E.00797
G1 X130.637 Y130.79 E.0045
G1 E-3.5 F3600
;WIPE_START
G1 F7200
G1 X131.058 Y131.153 E-.26361
G1 X131.335 Y131.564 E-.23583
G1 X131.505 Y132.031 E-.23583
G1 X131.559 Y132.524 E-.23583
G1 X131.494 Y133.016 E-.23583
G1 X131.326 Y133.444 E-.21808
;WIPE_END
G1 E-.075 F3600
G1 X126.475 Y131.128 F9000
G1 E5 F2400
G1 F1200
G1 X126.072 Y132.209 E.01545
G1 X125.675 Y132.796 E.00949
G1 X125.388 Y133.199 E.00663
G1 X124.496 Y133.981 E.0159
G1 X123.497 Y134.499 E.01507
G1 X122.37 Y134.774 E.01554
G1 X121.258 Y134.778 E.0149
G1 X120.13 Y134.509 E.01553
G1 X119.031 Y133.93 E.01665
G1 X118.193 Y133.18 E.01508
G1 X117.559 Y132.266 E.0149
G1 X117.128 Y131.137 E.01619
G1 X116.991 Y129.984 E.01556
G1 X117.133 Y128.848 E.01535
G1 X117.527 Y127.794 E.01508
G1 X118.18 Y126.835 E.01554
G1 X119.083 Y126.032 E.01618
G1 X120.113 Y125.497 E.01556
G1 X121.227 Y125.228 E.01535
G1 X122.391 Y125.226 E.0156
G1 X123.479 Y125.493 E.01501
G1 X124.144 Y125.835 E.01001
G1 X124.578 Y126.08 E.00669
G1 X125.382 Y126.791 E.01438
G1 X126.06 Y127.775 E.01601
G1 X126.343 Y128.507 E.01051
G1 X126.482 Y128.928 E.00595
G1 X126.609 Y129.977 E.01415
G1 X126.482 Y131.069 E.01473
G1 E-3.5 F3600
;WIPE_START
G1 F7200
G1 X126.072 Y132.209 E-.57558
G1 X125.675 Y132.796 E-.3365
G1 X125.388 Y133.199 E-.23505
G1 X124.948 Y133.584 E-.27787
;WIPE_END
G1 E-.075 F3600
G1 X102.747 Y127.744 F9000
G1 E5 F2400
G1 F1200
G1 X103.164 Y128.825 E.01553
G1 X103.309 Y129.976 E.01553
G1 X103.164 Y131.175 E.01618
G1 X102.77 Y132.214 E.01489
G1 X102.116 Y133.171 E.01553
G1 X101.252 Y133.944 E.01553
G1 X100.228 Y134.488 E.01553
G1 X99.056 Y134.777 E.01618
G1 X97.896 Y134.771 E.01553
G1 X96.817 Y134.505 E.01489
G1 X95.748 Y133.944 E.01618
G1 X94.916 Y133.207 E.01489
G1 X94.23 Y132.214 E.01618
G1 X93.836 Y131.175 E.01489
G1 X93.691 Y130.024 E.01553
G1 X93.836 Y128.825 E.01618
G1 X94.23 Y127.786 E.01489
G1 X94.884 Y126.829 E.01553
G1 X95.788 Y126.028 E.01618
G1 X96.772 Y125.512 E.01489
G1 X97.896 Y125.229 E.01553
G1 X99.104 Y125.229 E.01618
G1 X100.228 Y125.512 E.01553
G1 X101.212 Y126.028 E.01489
G1 X102.084 Y126.793 E.01554
G1 X102.713 Y127.695 E.01473
G1 E-3.5 F3600
;WIPE_START
G1 F7200
G1 X103.164 Y128.825 E-.57822
G1 X103.309 Y129.976 E-.55072
G1 X103.234 Y130.594 E-.29606
;WIPE_END
G1 E-.075 F3600
G1 X91.335 Y131.564 F9000
G1 E5 F2400
G1 F1200
G1 X91.505 Y132.031 E.00665
G1 X91.558 Y132.538 E.00683
G1 X91.494 Y133.016 E.00647
G1 X91.293 Y133.506 E.00709
G1 X91.025 Y133.884 E.0062
G1 X90.65 Y134.209 E.00665
G1 X90.208 Y134.434 E.00665
G1 X89.724 Y134.547 E.00665
G1 X89.228 Y134.541 E.00665
G1 X88.651 Y134.367 E.00807
G1 X88.273 Y134.148 E.00586
G1 X87.942 Y133.847 E.00598
G1 X87.665 Y133.436 E.00665
G1 X87.495 Y132.969 E.00665
G1 X87.441 Y132.524 E.00601
G1 X87.506 Y131.984 E.0073
G1 X87.688 Y131.521 E.00665
G1 X87.975 Y131.116 E.00665
G1 X88.35 Y130.791 E.00665
G1 X88.792 Y130.566 E.00665
G1 X89.276 Y130.453 E.00665
G1 X89.772 Y130.459 E.00665
G1 X90.253 Y130.583 E.00665
G1 X90.69 Y130.819 E.00665
G1 X91.058 Y131.153 E.00665
G1 X91.301 Y131.515 E.00585
G1 X90.689 Y130.679 F9000
;TYPE:Solid infill
;WIDTH:0.421867
G1 F1200
G1 X88.12 Y128.111 E.04889
G1 X88.12 Y128.683 E.0077
G1 X89.586 Y130.149 E.02791
G1 X89.264 Y130.142 E.00434
G1 X89.058 Y130.193 E.00286
G1 X88.092 Y129.227 E.01839
G1 X88.055 Y129.362 E.00188
G1 X87.974 Y129.468 E.0018
G1 X87.852 Y129.559 E.00206
G1 X88.601 Y130.309 E.01427
G1 X88.226 Y130.506 E.00571
G1 X87.338 Y129.618 E.01692
G1 X86.766 Y129.618 E.0077
G1 X87.911 Y130.763 E.02179
G1 X87.76 Y130.892 E.00267
G1 X87.64 Y131.065 E.00283
G1 X86.194 Y129.619 E.02753
G1 X85.622 Y129.62 E.0077
G1 X87.407 Y131.404 E.03396
G1 X87.247 Y131.816 E.00596
G1 X85.12 Y129.69 E.04048
G1 X85.12 Y130.262 E.0077
G1 X87.156 Y132.298 E.03875
G1 X87.131 Y132.546 E.00336
G1 X87.173 Y132.887 E.00463
G1 X85.12 Y130.834 E.03908
G1 X85.12 Y131.407 E.0077
G1 X90.593 Y136.88 E.10419
G1 X90.021 Y136.88 E.0077
G1 X85.12 Y131.979 E.09329
G1 X85.131 Y132.562 E.00785
G1 X89.438 Y136.869 E.08198
G1 X88.793 Y136.796 E.00874
G1 X85.204 Y133.207 E.06832
G1 X85.234 Y133.474 E.00361
G1 X85.415 Y133.99 E.00737
G1 X88.01 Y136.585 E.0494
G1 X87.601 Y136.443 E.00582
G1 X86.776 Y135.924 E.01313
G1 X85.5 Y134.648 E.02428
G1 E-3.5 F3600
;WIPE_START
G1 F7200
G1 X86.776 Y135.924 E-.85676
G1 X87.601 Y136.443 E-.46322
G1 X87.81 Y136.516 E-.10503
;WIPE_END
G1 E-.075 F3600
G1 X88.871 Y134.586 F9000
G1 E5 F2400
G1 F1200
G1 X91.166 Y136.88 E.04367
G1 X91.738 Y136.88 E.0077
G1 X89.71 Y134.852 E.0386
G1 X89.807 Y134.851 E.00131
G1 X90.189 Y134.758 E.00529
G1 X92.31 Y136.88 E.04039
G1 X92.883 Y136.88 E.0077
G1 X90.588 Y134.586 E.04367
G1 X90.805 Y134.478 E.00325
G1 X90.936 Y134.361 E.00237
G1 X93.455 Y136.88 E.04794
G1 X94.027 Y136.88 E.0077
G1 X91.24 Y134.092 E.05306
G1 X91.306 Y134.034 E.00118
G1 X91.487 Y133.767 E.00435
G1 X94.6 Y136.88 E.05926
G1 X95.172 Y136.88 E.0077
G1 X91.683 Y133.39 E.06642
G1 X91.788 Y133.114 E.00398
G1 X91.809 Y132.944 E.0023
G1 X95.744 Y136.88 E.07491
G1 X96.317 Y136.88 E.0077
G1 X91.866 Y132.429 E.08472
G1 X91.795 Y131.904 E.00714
G1 X91.715 Y131.706 E.00287
G1 X96.889 Y136.88 E.09848
G1 X97.461 Y136.88 E.0077
G1 X88.12 Y127.539 E.17782
G1 X88.12 Y126.966 E.0077
G1 X98.215 Y137.061 E.19216
G1 E-3.5 F3600
;WIPE_START
G1 F7200
G1 X96.094 Y134.94 E-1.425
;WIPE_END
G1 E-.075 F3600
