; generated by PrusaSlicer 2.5.0+linux-x64-GTK3 on 2023-01-20 at 05:45:20 UTC

; 

; external perimeters extrusion width = 0.42mm
; perimeters extrusion width = 0.44mm
; infill extrusion width = 0.44mm
; solid infill extrusion width = 0.44mm
; top infill extrusion width = 0.40mm
; first layer extrusion width = 0.42mm

M107
;TYPE:Custom
G90 ; use absolute coordinates
M83 ; extruder relative mode
M140 S70 ; set final bed temp
M104 S150 ; set temporary nozzle temp to prevent oozing during homing and auto bed leveling
G4 S10 ; allow partial nozzle warmup
G28 ; home all axis
G29 ; auto bed levelling
G1 Z50 F240
G1 X2 Y10 F3000
M104 S205 ; set final nozzle temp
M190 S70 ; wait for bed temp to stabilize
M109 S205 ; wait for nozzle temp to stabilize
G1 Z0.28 F240
G92 E0
G1 Y140 E10 F1500 ; prime the nozzle
G1 X2.3 F5000
G92 E0
G1 Y10 E10 F1200 ; prime the nozzle
G92 E0
G21 ; set units to millimeters
G90 ; use absolute coordinates
M83 ; use relative distances for extrusion
; Filament gcode
M107
;LAYER_CHANGE
;Z:0.2
;HEIGHT:0.2
;BEFORE_LAYER_CHANGE
G92 E0
;0.2


G1 E-5 F3600
G1 Z.2 F9000
;AFTER_LAYER_CHANGE
;0.2
G1 X89.014 Y86.236
G1 E5 F2400
M204 S500
;TYPE:Skirt/Brim
;WIDTH:0.42
G1 F1200
G1 X89.969 Y85.279 E.04238
G1 X90.564 Y84.804 E.02386
G1 X91.701 Y84.089 E.04213
G1 X92.382 Y83.761 E.02371
G1 X93.643 Y83.32 E.04186
G1 X94.375 Y83.152 E.02356
G1 X95.723 Y82.998 E.04253
G1 X136.479 Y82.998 E1.27788
G1 X137.814 Y83.149 E.04213
G1 X138.552 Y83.317 E.02371
G1 X139.82 Y83.761 E.04213
G1 X140.501 Y84.089 E.02371
G1 X141.639 Y84.804 E.04213
G1 X142.23 Y85.275 E.02371
G1 X143.18 Y86.225 E.04213
G1 X143.652 Y86.817 E.02371
G1 X144.366 Y87.954 E.04213
G1 X144.695 Y88.636 E.02371
G1 X145.136 Y89.896 E.04186
G1 X145.303 Y90.628 E.02356
G1 X145.478 Y92.354 E.05439
G1 X145.478 Y137.354 E1.41094
G1 X145.307 Y139.068 E.05399
G1 X145.138 Y139.805 E.02371
G1 X144.695 Y141.073 E.04213
G1 X144.366 Y141.754 E.02371
G1 X143.656 Y142.885 E.04186
G1 X143.188 Y143.473 E.02357
G1 X142.233 Y144.43 E.04238
G1 X141.639 Y144.905 E.02386
G1 X140.501 Y145.62 E.04213
G1 X139.82 Y145.948 E.02371
G1 X138.56 Y146.389 E.04186
G1 X137.827 Y146.556 E.02356
G1 X136.101 Y146.731 E.05439
G1 X96.101 Y146.731 E1.25417
G1 X94.388 Y146.56 E.05399
G1 X93.651 Y146.391 E.02371
G1 X92.382 Y145.948 E.04213
G1 X91.701 Y145.62 E.02371
G1 X90.571 Y144.909 E.04186
G1 X89.983 Y144.441 E.02357
G1 X89.026 Y143.486 E.04238
G1 X88.551 Y142.892 E.02386
G1 X87.836 Y141.754 E.04213
G1 X87.508 Y141.073 E.02371
G1 X87.067 Y139.813 E.04186
G1 X86.899 Y139.08 E.02356
G1 X86.724 Y137.354 E.05439
G1 X86.724 Y92.354 E1.41094
G1 X86.896 Y90.641 E.05399
G1 X87.064 Y89.904 E.02371
G1 X87.508 Y88.636 E.04213
G1 X87.836 Y87.954 E.02371
G1 X88.546 Y86.824 E.04186
G1 X88.977 Y86.283 E.02168
G1 E-3.5 F3600
;WIPE_START
G1 F7200
G1 X89.969 Y85.279 E-.67042
G1 X90.564 Y84.804 E-.36141
G1 X91.264 Y84.363 E-.39317
;WIPE_END
G1 E-.075 F3600
G1 X92.279 Y89.249 F9000
G1 E5 F2400
;TYPE:Perimeter
;WIDTH:0.419999
G1 F1200
G1 X93.079 Y88.469 E.03503
G1 X94.021 Y87.893 E.03463
G1 X95.055 Y87.543 E.03424
;WIDTH:0.45785
G1 X95.219 Y87.544 E.00564
;WIDTH:0.4957
G1 X95.383 Y87.544 E.00616
;WIDTH:0.533551
G1 X95.546 Y87.545 E.00667
;WIDTH:0.571406
G1 X95.71 Y87.545 E.00719
G1 X96.332 Y87.475 E.02751
;WIDTH:0.533555
G1 X96.484 Y87.456 E.00625
;WIDTH:0.495703
G1 X96.636 Y87.437 E.00577
;WIDTH:0.457851
G1 X96.788 Y87.418 E.00528
;WIDTH:0.419999
G1 X135.414 Y87.418 E1.21111
;WIDTH:0.467251
G1 X135.701 Y87.451 E.01016
;WIDTH:0.514503
G1 X135.987 Y87.483 E.01129
;WIDTH:0.561755
G1 X136.273 Y87.516 E.01242
G1 X136.451 Y87.512 E.00771
;WIDTH:0.514503
G1 X136.63 Y87.509 E.00701
;WIDTH:0.467251
G1 X136.809 Y87.505 E.0063
;WIDTH:0.419999
G1 X137.247 Y87.566 E.01387
G1 X138.292 Y87.946 E.03489
G1 X139.217 Y88.543 E.0345
G1 X139.981 Y89.323 E.03423
;WIDTH:0.467354
G1 X140.111 Y89.574 E.01
;WIDTH:0.514709
G1 X140.241 Y89.826 E.01111
;WIDTH:0.562063
G1 X140.5 Y90.33 E.02445
;WIDTH:0.530181
G1 X140.629 Y90.582 E.01147
;WIDTH:0.498298
G1 X140.768 Y90.92 E.01383
;WIDTH:0.459149
G1 X140.907 Y91.257 E.01264
;WIDTH:0.419999
G1 X141.037 Y92.414 E.03649
G1 X141.037 Y137.295 E1.4072
G1 X140.888 Y138.504 E.03822
;WIDTH:0.445706
G1 X140.654 Y139.135 E.02255
;WIDTH:0.491246
G1 X140.587 Y139.251 E.00499
;WIDTH:0.536786
G1 X140.519 Y139.367 E.0055
;WIDTH:0.582326
G1 X140.137 Y140.004 E.0333
;WIDTH:0.562063
G1 X140.066 Y140.156 E.00724
;WIDTH:0.514709
G1 X139.994 Y140.308 E.00658
;WIDTH:0.467354
G1 X139.923 Y140.459 E.00592
;WIDTH:0.419999
G1 X139.124 Y141.24 E.03503
G1 X138.181 Y141.816 E.03463
G1 X137.147 Y142.166 E.03424
;WIDTH:0.45785
G1 X136.983 Y142.165 E.00564
;WIDTH:0.4957
G1 X136.82 Y142.164 E.00616
;WIDTH:0.53355
G1 X136.656 Y142.164 E.00667
;WIDTH:0.571406
G1 X136.492 Y142.163 E.00719
G1 X135.87 Y142.233 E.02751
;WIDTH:0.533555
G1 X135.718 Y142.252 E.00625
;WIDTH:0.495703
G1 X135.566 Y142.271 E.00577
;WIDTH:0.457851
G1 X135.414 Y142.29 E.00528
;WIDTH:0.419999
G1 X96.788 Y142.29 E1.21111
;WIDTH:0.467252
G1 X96.502 Y142.258 E.01016
;WIDTH:0.514504
G1 X96.216 Y142.225 E.01129
;WIDTH:0.561756
G1 X95.93 Y142.193 E.01242
G1 X95.751 Y142.196 E.00771
;WIDTH:0.514504
G1 X95.572 Y142.2 E.00701
;WIDTH:0.467252
G1 X95.394 Y142.204 E.0063
;WIDTH:0.419999
G1 X95.004 Y142.16 E.01229
G1 X93.963 Y141.795 E.03461
G1 X93.028 Y141.208 E.03461
G1 X92.279 Y140.459 E.0332
;WIDTH:0.467355
G1 X92.208 Y140.308 E.00592
;WIDTH:0.514711
G1 X92.136 Y140.156 E.00658
;WIDTH:0.562066
G1 X92.065 Y140.004 E.00724
G1 X91.944 Y139.82 E.0095
;WIDTH:0.552491
G1 X91.812 Y139.592 E.01117
;WIDTH:0.516899
G1 X91.68 Y139.364 E.01039
;WIDTH:0.481306
G1 X91.549 Y139.135 E.00961
;WIDTH:0.445713
G1 X91.296 Y138.451 E.02444
;WIDTH:0.419999
G1 X91.165 Y137.295 E.03649
G1 X91.165 Y92.414 E1.40719
G1 X91.314 Y91.204 E.03822
;WIDTH:0.460582
G1 X91.417 Y90.973 E.00878
;WIDTH:0.501164
G1 X91.519 Y90.742 E.00963
;WIDTH:0.541747
G1 X91.621 Y90.511 E.01048
;WIDTH:0.582329
G1 X91.724 Y90.28 E.01134
G1 X91.944 Y89.889 E.02013
;WIDTH:0.552491
G1 X92.056 Y89.675 E.0102
;WIDTH:0.508327
G1 X92.168 Y89.462 E.00931
;WIDTH:0.464163
G1 X92.251 Y89.302 E.00633
G1 X91.951 Y89.044 F9000
;WIDTH:0.419999
G1 F1200
G1 X92.791 Y88.204 E.03727
G1 X93.798 Y87.571 E.03727
G1 X94.92 Y87.179 E.03727
G1 X96.14 Y87.041 E.03849
G1 X136.063 Y87.041 E1.25175
G1 X137.282 Y87.179 E.03849
G1 X138.404 Y87.571 E.03727
G1 X139.411 Y88.204 E.03727
G1 X140.252 Y89.044 E.03727
G1 X140.884 Y90.051 E.03727
G1 X141.277 Y91.173 E.03727
G1 X141.414 Y92.393 E.03849
G1 X141.414 Y137.316 E1.40852
G1 X141.277 Y138.536 E.03849
G1 X140.884 Y139.658 E.03727
G1 X140.252 Y140.664 E.03727
G1 X139.411 Y141.505 E.03727
G1 X138.404 Y142.137 E.03727
G1 X137.282 Y142.53 E.03727
G1 X136.063 Y142.667 E.03849
G1 X96.14 Y142.667 E1.25175
G1 X94.92 Y142.53 E.03849
G1 X93.798 Y142.137 E.03727
G1 X92.791 Y141.505 E.03727
G1 X91.951 Y140.664 E.03727
G1 X91.318 Y139.658 E.03727
G1 X90.926 Y138.536 E.03727
G1 X90.788 Y137.316 E.03849
G1 X90.788 Y92.393 E1.40852
G1 X90.926 Y91.173 E.03849
G1 X91.318 Y90.051 E.03727
G1 X91.919 Y89.095 E.03539
G1 X91.654 Y88.808 F9000
;TYPE:External perimeter
G1 F1200
G1 X92.555 Y87.907 E.03994
G1 X93.633 Y87.23 E.03994
G1 X94.835 Y86.809 E.03994
G1 X96.119 Y86.664 E.04049
G1 X136.084 Y86.664 E1.25308
G1 X137.367 Y86.809 E.04049
G1 X138.569 Y87.23 E.03994
G1 X139.648 Y87.907 E.03994
G1 X140.548 Y88.808 E.03994
G1 X141.226 Y89.886 E.03994
G1 X141.647 Y91.089 E.03994
G1 X141.791 Y92.372 E.04049
G1 X141.791 Y137.337 E1.40985
G1 X141.647 Y138.62 E.04049
G1 X141.226 Y139.822 E.03994
G1 X140.548 Y140.901 E.03994
G1 X139.648 Y141.801 E.03994
G1 X138.569 Y142.479 E.03994
G1 X137.367 Y142.9 E.03994
G1 X136.084 Y143.044 E.04049
G1 X96.119 Y143.044 E1.25308
G1 X94.835 Y142.9 E.04049
G1 X93.633 Y142.479 E.03994
G1 X92.555 Y141.801 E.03994
G1 X91.654 Y140.901 E.03994
G1 X90.976 Y139.822 E.03994
G1 X90.556 Y138.62 E.03994
G1 X90.411 Y137.337 E.04049
G1 X90.411 Y92.372 E1.40985
G1 X90.556 Y91.089 E.04049
G1 X90.976 Y89.886 E.03994
G1 X91.622 Y88.859 E.03805
G1 X92.05 Y88.867 F9000
G1 X92.518 Y90.056
;TYPE:Perimeter
;WIDTH:0.508327
G1 F1200
G1 X92.633 Y89.972 E.00549
;WIDTH:0.464163
G1 X92.762 Y89.878 E.00558
;WIDTH:0.419999
G1 X95.335 Y88.392 E.09316
;WIDTH:0.45785
G1 X95.455 Y88.31 E.00502
;WIDTH:0.4957
G1 X95.575 Y88.227 E.00548
;WIDTH:0.533551
G1 X95.694 Y88.144 E.00594
;WIDTH:0.571401
G1 X95.814 Y88.062 E.0064
;WIDTH:0.579902
G1 X96.278 Y88.031 E.02076
G1 X96.352 Y88.079 E.00392
;WIDTH:0.539927
G1 X96.425 Y88.127 E.00363
;WIDTH:0.499951
G1 X96.499 Y88.174 E.00334
;WIDTH:0.459975
G1 X96.573 Y88.222 E.00304
;WIDTH:0.419999
G1 X99.444 Y89.88 E.10396
G1 X99.679 Y90.072 E.00953
G1 X99.825 Y90.294 E.00833
G1 X99.915 Y90.696 E.01292
G1 X99.915 Y94.012 E.10396
G1 X99.859 Y94.332 E.01019
G1 X99.668 Y94.649 E.01161
G1 X99.444 Y94.829 E.00899
G1 X96.573 Y96.486 E.10396
G1 X96.236 Y96.603 E.01117
G1 X95.967 Y96.603 E.00845
G1 X95.63 Y96.486 E.01117
G1 X92.758 Y94.829 E.10396
G1 X92.432 Y94.515 E.0142
G1 X92.301 Y94.175 E.01141
G1 X92.287 Y94.012 E.00513
G1 X92.287 Y91.37 E.08286
;WIDTH:0.459149
G1 X92.267 Y91.033 E.01167
;WIDTH:0.498299
G1 X92.248 Y90.696 E.01276
;WIDTH:0.544159
G1 X92.232 Y90.613 E.00354
;WIDTH:0.590018
G1 X92.216 Y90.53 E.00386
G1 X92.375 Y90.16 E.01834
;WIDTH:0.552491
G1 X92.47 Y90.091 E.00495
G1 X92.799 Y90.377 F9000
;WIDTH:0.419999
G1 F1200
G1 X92.95 Y90.205 E.00718
G1 X95.818 Y88.549 E.10384
G1 X96.038 Y88.477 E.00724
G1 X96.199 Y88.481 E.00505
G1 X96.384 Y88.549 E.00617
G1 X99.255 Y90.207 E.10396
G1 X99.397 Y90.322 E.00572
G1 X99.527 Y90.584 E.00917
G1 X99.538 Y90.696 E.00355
G1 X99.538 Y94.012 E.10396
G1 X99.476 Y94.27 E.00832
G1 X99.255 Y94.502 E.01003
G1 X96.384 Y96.16 E.10396
G1 X96.107 Y96.236 E.009
G1 X95.818 Y96.16 E.00936
G1 X92.947 Y94.502 E.10396
G1 X92.751 Y94.314 E.00852
G1 X92.664 Y94.012 E.00984
G1 X92.664 Y90.696 E.10396
G1 X92.706 Y90.483 E.00683
G1 X92.76 Y90.422 E.00255
G1 X93.07 Y90.596 F9000
;TYPE:External perimeter
G1 F1200
G1 X94.004 Y90.032 E.03421
G1 X96.007 Y88.875 E.07252
G1 X96.134 Y88.853 E.00404
G1 X99.067 Y90.533 E.10599
G1 X99.157 Y90.659 E.00486
G1 X99.161 Y90.696 E.00118
G1 X99.161 Y94.012 E.10396
G1 X99.093 Y94.158 E.00504
G1 X96.195 Y95.833 E.10494
G1 X96.042 Y95.849 E.00484
G1 X93.135 Y94.175 E.10515
G1 X93.044 Y94.045 E.005
G1 X93.041 Y94.012 E.00103
G1 X93.053 Y90.654 E.1053
G1 X92.929 Y90.222 F9000
G1 E-3.5 F3600
;WIPE_START
G1 F7200
G1 X94.004 Y90.032 E-.53958
G1 X95.618 Y89.1 E-.88542
;WIPE_END
G1 E-.075 F3600
G1 X136.36 Y88.112 F9000
G1 E5 F2400
;TYPE:Perimeter
;WIDTH:0.561755
G1 F1200
G1 X136.432 Y88.152 E.00356
;WIDTH:0.514503
G1 X136.65 Y88.272 E.00975
;WIDTH:0.467251
G1 X136.867 Y88.392 E.00877
;WIDTH:0.419999
G1 X139.444 Y89.88 E.09329
;WIDTH:0.464162
G1 X139.572 Y89.973 E.00554
;WIDTH:0.508325
G1 X139.699 Y90.066 E.00612
;WIDTH:0.552487
G1 X139.827 Y90.16 E.0067
;WIDTH:0.590016
G1 X139.987 Y90.53 E.01834
G1 X139.969 Y90.74 E.00959
;WIDTH:0.547512
G1 X139.951 Y90.95 E.00884
;WIDTH:0.505008
G1 X139.933 Y91.16 E.0081
;WIDTH:0.462504
G1 X139.915 Y91.37 E.00735
;WIDTH:0.419999
G1 X139.915 Y94.012 E.08286
G1 X139.901 Y94.175 E.00513
G1 X139.77 Y94.515 E.01141
G1 X139.444 Y94.829 E.0142
G1 X136.573 Y96.486 E.10396
G1 X136.236 Y96.603 E.01117
G1 X135.86 Y96.581 E.0118
G1 X135.63 Y96.486 E.00781
G1 X132.758 Y94.829 E.10396
G1 X132.489 Y94.595 E.01116
G1 X132.322 Y94.266 E.01158
G1 X132.287 Y94.012 E.00804
G1 X132.287 Y90.696 E.10396
G1 X132.377 Y90.294 E.01292
G1 X132.523 Y90.072 E.00833
G1 X132.758 Y89.88 E.00953
G1 X135.63 Y88.222 E.10396
;WIDTH:0.459975
G1 X135.703 Y88.174 E.00304
;WIDTH:0.499951
G1 X135.777 Y88.127 E.00334
;WIDTH:0.539927
G1 X135.851 Y88.079 E.00363
;WIDTH:0.579903
G1 X135.924 Y88.031 E.00392
G1 X136.215 Y88.031 E.01296
;WIDTH:0.561755
G1 X136.308 Y88.083 E.00458
G1 X136.188 Y88.503 F9000
;WIDTH:0.419999
G1 F1200
G1 X136.384 Y88.549 E.00631
G1 X139.255 Y90.207 E.10396
G1 X139.496 Y90.483 E.01149
G1 X139.538 Y90.696 E.00683
G1 X139.538 Y94.012 E.10396
G1 X139.451 Y94.314 E.00984
G1 X139.255 Y94.502 E.00852
G1 X136.384 Y96.16 E.10396
G1 X136.095 Y96.236 E.00936
G1 X135.818 Y96.16 E.009
G1 X132.947 Y94.502 E.10396
G1 X132.756 Y94.322 E.00823
G1 X132.667 Y94.069 E.0084
G1 X132.664 Y94.012 E.00178
G1 X132.664 Y90.696 E.10396
G1 X132.718 Y90.455 E.00775
G1 X132.806 Y90.322 E.005
G1 X132.947 Y90.207 E.00572
G1 X135.818 Y88.549 E.10396
G1 X136.066 Y88.474 E.00812
G1 X136.13 Y88.489 E.00204
G1 X136.122 Y88.851 F9000
;TYPE:External perimeter
G1 F1200
G1 X139.067 Y90.533 E.10633
G1 X139.159 Y90.666 E.00506
G1 X139.161 Y94.012 E.10492
G1 X139.132 Y94.113 E.00328
G1 X139.067 Y94.175 E.00284
G1 X136.195 Y95.833 E.10396
G1 X136.035 Y95.846 E.00505
G1 X133.135 Y94.175 E.10493
G1 X133.045 Y94.048 E.00491
G1 X133.041 Y90.696 E.10508
G1 X133.088 Y90.572 E.00418
G1 X133.135 Y90.533 E.00191
G1 X136.007 Y88.875 E.10396
G1 X136.064 Y88.864 E.00181
G1 X136.38 Y88.545 F9000
G1 E-3.5 F3600
;WIPE_START
G1 F7200
G1 X138.686 Y90.321 E-1.425
;WIPE_END
G1 E-.075 F3600
G1 X132.655 Y139.744 F9000
G1 E5 F2400
;TYPE:Perimeter
G1 F1200
G1 X132.523 Y139.636 E.00532
G1 X132.377 Y139.414 E.00833
G1 X132.287 Y139.012 E.01292
G1 X132.287 Y135.696 E.10396
G1 X132.343 Y135.376 E.01019
G1 X132.535 Y135.06 E.01161
G1 X132.758 Y134.88 E.00899
G1 X135.63 Y133.222 E.10396
G1 X135.967 Y133.106 E.01117
G1 X136.236 Y133.106 E.00845
G1 X136.573 Y133.222 E.01117
G1 X139.444 Y134.88 E.10396
G1 X139.77 Y135.194 E.0142
G1 X139.915 Y135.696 E.0164
G1 X139.915 Y138.339 E.08286
;WIDTH:0.445706
G1 X139.928 Y139.012 E.02255
;WIDTH:0.491246
G1 X139.94 Y139.099 E.00325
;WIDTH:0.536786
G1 X139.951 Y139.185 E.00358
;WIDTH:0.582326
G1 X139.963 Y139.271 E.00391
G1 X139.725 Y139.692 E.02167
;WIDTH:0.562063
G1 X139.342 Y139.904 E.01892
;WIDTH:0.514709
G1 X138.959 Y140.117 E.01719
;WIDTH:0.467354
G1 X138.575 Y140.33 E.01547
;WIDTH:0.419999
G1 X136.867 Y141.316 E.06184
;WIDTH:0.45785
G1 X136.748 Y141.399 E.00502
;WIDTH:0.4957
G1 X136.628 Y141.482 E.00548
;WIDTH:0.53355
G1 X136.508 Y141.564 E.00594
;WIDTH:0.5714
G1 X136.388 Y141.647 E.0064
G1 X136.039 Y141.686 E.01547
G1 X135.936 Y141.636 E.005
;WIDTH:0.533555
G1 X135.834 Y141.586 E.00464
;WIDTH:0.495703
G1 X135.732 Y141.536 E.00428
;WIDTH:0.457851
G1 X135.63 Y141.486 E.00393
;WIDTH:0.419999
G1 X132.701 Y139.782 E.10626
G1 X132.895 Y139.46 F9000
G1 F1200
G1 X132.806 Y139.387 E.00361
G1 X132.675 Y139.125 E.00917
G1 X132.664 Y139.012 E.00355
G1 X132.664 Y135.696 E.10396
G1 X132.726 Y135.438 E.00832
G1 X132.947 Y135.207 E.01003
G1 X135.818 Y133.549 E.10396
G1 X136.095 Y133.473 E.009
G1 X136.384 Y133.549 E.00936
G1 X139.255 Y135.207 E.10396
G1 X139.451 Y135.395 E.00852
G1 X139.538 Y135.696 E.00984
G1 X139.538 Y139.012 E.10396
G1 X139.452 Y139.313 E.00982
G1 X139.252 Y139.504 E.00866
G1 X136.384 Y141.16 E.10383
G1 X136.165 Y141.232 E.00724
G1 X135.818 Y141.16 E.01109
G1 X132.941 Y139.497 E.10418
G1 X133.135 Y139.175 F9000
;TYPE:External perimeter
G1 F1200
G1 X133.045 Y139.05 E.00486
G1 X133.041 Y139.012 E.00118
G1 X133.041 Y135.696 E.10396
G1 X133.11 Y135.551 E.00504
G1 X133.135 Y135.533 E.00098
G1 X136.007 Y133.875 E.10396
G1 X136.161 Y133.86 E.00484
G1 X139.067 Y135.533 E.10515
G1 X139.132 Y135.596 E.00284
G1 X139.161 Y135.696 E.00328
G1 X139.161 Y139.012 E.10396
G1 X139.113 Y139.139 E.00425
G1 X136.195 Y140.833 E.10578
G1 X136.09 Y140.858 E.00341
G1 X136.007 Y140.833 E.00271
G1 X133.187 Y139.205 E.10208
G1 X132.985 Y139.213 F9000
G1 E-3.5 F3600
;WIPE_START
G1 F7200
G1 X133.045 Y139.05 E-.10023
G1 X133.041 Y139.012 E-.01795
G1 X133.041 Y136.261 E-1.30682
;WIPE_END
G1 E-.075 F3600
G1 X95.842 Y141.597 F9000
G1 E5 F2400
;TYPE:Perimeter
;WIDTH:0.561756
G1 F1200
G1 X95.77 Y141.557 E.00356
;WIDTH:0.514504
G1 X95.553 Y141.436 E.00975
;WIDTH:0.467252
G1 X95.335 Y141.316 E.00877
;WIDTH:0.419999
G1 X92.758 Y139.829 E.09329
;WIDTH:0.467355
G1 X92.665 Y139.783 E.00368
;WIDTH:0.514711
G1 X92.571 Y139.737 E.00409
;WIDTH:0.562066
G1 X92.477 Y139.692 E.0045
;WIDTH:0.582329
G1 X92.239 Y139.271 E.02167
G1 X92.251 Y139.038 E.01047
;WIDTH:0.541747
G1 X92.263 Y138.805 E.00968
