; generated by PrusaSlicer 2.5.0+linux-x64-GTK3 on 2023-01-24 at 09:28:42 UTC

; 

; external perimeters extrusion width = 0.45mm
; perimeters extrusion width = 0.45mm
; infill extrusion width = 0.45mm
; solid infill extrusion width = 0.45mm
; top infill extrusion width = 0.40mm
; first layer extrusion width = 0.42mm

M201 X500 Y500 Z100 E5000 ; sets maximum accelerations, mm/sec^2
M203 X500 Y500 Z10 E60 ; sets maximum feedrates, mm / sec
M204 P500 R1000 T500 ; sets acceleration (P, T) and retract acceleration (R), mm/sec^2
M205 X8.00 Y8.00 Z0.40 E5.00 ; sets the jerk limits, mm/sec
M205 S0 T0 ; sets the minimum extruding and travel feed rate, mm/sec
M107
;TYPE:Custom
G90 ; use absolute coordinates
M83 ; extruder relative mode
M104 S120 ; set temporary nozzle temp to prevent oozing during homing and auto bed leveling
M140 S60 ; set final bed temp
G4 S10 ; allow partial nozzle warmup
G28 ; home all axis
G1 Z50 F240
G1 X2 Y10 F3000
M104 S205 ; set final nozzle temp
M190 S60 ; wait for bed temp to stabilize
M109 S205 ; wait for nozzle temp to stabilize
G1 Z0.28 F240
G92 E0
G1 Y140 E10 F1500 ; prime the nozzle
G1 X2.3 F5000
G92 E0
G1 Y10 E10 F1200 ; prime the nozzle
G92 E0
G21 ; set units to millimeters
G90 ; use absolute coordinates
M83 ; use relative distances for extrusion
; Filament gcode
M107
;LAYER_CHANGE
;Z:0.2
;HEIGHT:0.2
;BEFORE_LAYER_CHANGE
G92 E0
;0.2


G1 E-5 F3600
G1 Z.2 F9000
;AFTER_LAYER_CHANGE
;0.2
G1 X92.935 Y88.442
G1 E5 F2400
M204 S500
;TYPE:Skirt/Brim
;WIDTH:0.42
G1 F1200
G1 X93.727 Y87.65 E.03511
G1 X94.318 Y87.179 E.02371
G1 X95.266 Y86.583 E.03511
G1 X95.947 Y86.255 E.02371
G1 X97.004 Y85.885 E.03511
G1 X97.741 Y85.717 E.02371
G1 X98.854 Y85.592 E.03511
G1 X139.61 Y85.592 E1.27788
G1 X140.723 Y85.717 E.03511
G1 X141.46 Y85.885 E.02371
G1 X142.517 Y86.255 E.03511
G1 X143.198 Y86.583 E.02371
G1 X144.146 Y87.179 E.03511
G1 X144.738 Y87.65 E.02371
G1 X145.529 Y88.442 E.03511
G1 X146.567 Y89.934 E.05697
G1 X146.925 Y90.663 E.02546
G1 X147.294 Y91.719 E.03511
G1 X147.463 Y92.457 E.02371
G1 X148.609 Y103.447 E.34648
G1 X148.604 Y120.63 E.53874
G1 X147.588 Y139.326 E.58706
G1 X147.463 Y140.438 E.03511
G1 X147.294 Y141.175 E.02371
G1 X146.925 Y142.232 E.03511
G1 X146.596 Y142.914 E.02371
G1 X146.001 Y143.862 E.03511
G1 X145.529 Y144.453 E.02371
G1 X144.738 Y145.245 E.03511
G1 X144.146 Y145.716 E.02371
G1 X143.198 Y146.312 E.03511
G1 X142.517 Y146.64 E.02371
G1 X141.46 Y147.01 E.03511
G1 X140.723 Y147.178 E.02371
G1 X139.232 Y147.324 E.04697
G1 X99.232 Y147.324 E1.25417
G1 X97.741 Y147.178 E.04697
G1 X97.004 Y147.01 E.02371
G1 X95.947 Y146.64 E.03511
G1 X95.266 Y146.312 E.02371
G1 X94.318 Y145.716 E.03511
G1 X93.727 Y145.245 E.02371
G1 X92.935 Y144.453 E.03511
G1 X92.464 Y143.862 E.02371
G1 X91.868 Y142.914 E.03511
G1 X91.54 Y142.232 E.02371
G1 X91.17 Y141.175 E.03511
G1 X91.002 Y140.438 E.02371
G1 X90.855 Y138.947 E.04697
G1 X90.855 Y93.947 E1.41094
G1 X91.002 Y92.457 E.04697
G1 X91.17 Y91.719 E.02371
G1 X91.54 Y90.663 E.03511
G1 X91.868 Y89.981 E.02371
G1 X92.464 Y89.033 E.03511
G1 X92.898 Y88.489 E.02183
G1 E-3.5 F3600
;WIPE_START
G1 F7200
G1 X93.727 Y87.65 E-.56016
G1 X94.318 Y87.179 E-.3592
G1 X95.219 Y86.612 E-.50563
;WIPE_END
G1 E-.075 F3600
G1 X128.314 Y141.132 F9000
G1 E5 F2400
;TYPE:Perimeter
;WIDTH:0.419999
G1 F1200
G1 X127.314 Y140.257 E.04168
G1 X127.224 Y140.154 E.00428
G1 X126.524 Y139.135 E.03878
G1 X126.461 Y139.013 E.00428
G1 X126.026 Y137.855 E.03878
G1 X125.994 Y137.723 E.00429
G1 X125.849 Y136.494 E.0388
G1 X125.85 Y136.357 E.00428
G1 X126.004 Y135.13 E.03876
G1 X126.037 Y134.998 E.00428
G1 X126.481 Y133.843 E.03878
G1 X126.545 Y133.723 E.00428
G1 X127.253 Y132.708 E.03878
G1 X127.344 Y132.607 E.00428
G1 X128.274 Y131.792 E.03878
G1 X128.384 Y131.716 E.00418
G1 X129.413 Y131.176 E.03646
G1 X129.54 Y131.128 E.00424
G1 X130.811 Y130.812 E.04108
G1 X132.188 Y130.803 E.04317
G1 X133.03 Y130.995 E.02708
G1 X133.571 Y131.144 E.01757
G1 X134.674 Y131.713 E.03894
G1 X135.544 Y132.452 E.03577
;WIDTH:0.448758
G1 X135.737 Y132.642 E.00915
;WIDTH:0.477516
G1 X135.93 Y132.832 E.00979
G1 X135.858 Y132.578 E.00955
;WIDTH:0.448758
G1 X135.785 Y132.324 E.00892
;WIDTH:0.419999
G1 X135.738 Y131.799 E.01651
G1 X135.818 Y131.279 E.01652
G1 X136.02 Y130.792 E.01652
G1 X136.328 Y130.372 E.01633
G1 X136.716 Y130.044 E.01593
G1 X137.171 Y129.813 E.016
G1 X137.727 Y129.691 E.01783
G1 X138.253 Y129.708 E.01651
G1 X138.76 Y129.85 E.01651
G1 X139.219 Y130.109 E.01652
G1 X139.602 Y130.47 E.01652
G1 X139.888 Y130.913 E.01651
G1 X140.047 Y131.373 E.01526
G1 X140.106 Y131.935 E.01774
G1 X140.026 Y132.456 E.01652
G1 X139.824 Y132.943 E.01651
G1 X139.512 Y133.367 E.01651
G1 X139.107 Y133.703 E.01652
G1 X138.65 Y133.929 E.01597
G1 X138.118 Y134.044 E.01707
G1 X137.591 Y134.027 E.01651
G1 X137.084 Y133.885 E.01652
G1 X136.625 Y133.626 E.01652
;WIDTH:0.46502
G1 X136.307 Y133.393 E.01384
G1 X136.589 Y133.85 E.01886
;WIDTH:0.419999
G1 X137.026 Y134.994 E.03839
G1 X137.214 Y136.346 E.0428
G1 X137.137 Y137.115 E.02423
;WIDTH:0.427631
G1 X137.065 Y137.738 E.02007
;WIDTH:0.431816
G1 X137.04 Y137.875 E.00448
G1 X137.365 Y137.385 E.01902
;WIDTH:0.419999
G1 X137.793 Y136.983 E.0184
G1 X138.305 Y136.696 E.0184
G1 X138.871 Y136.54 E.0184
G1 X139.411 Y136.523 E.01692
G1 X139.959 Y136.63 E.01753
G1 X140.249 Y136.743 E.00977
G1 X140.671 Y136.983 E.0152
G1 X141.099 Y137.385 E.0184
G1 X141.419 Y137.877 E.0184
G1 X141.612 Y138.431 E.0184
G1 X141.667 Y139.011 E.01825
G1 X141.604 Y139.509 E.01576
G1 X141.419 Y140.018 E.01697
G1 X141.099 Y140.51 E.0184
G1 X140.709 Y140.878 E.01679
G1 X140.256 Y141.148 E.01655
G1 X140.031 Y141.247 E.0077
G1 X139.521 Y141.368 E.01644
G1 X139.006 Y141.372 E.01614
G1 X138.433 Y141.247 E.0184
G1 X137.906 Y140.989 E.0184
G1 X137.456 Y140.612 E.0184
G1 X137.125 Y140.163 E.01749
G1 X136.885 Y139.596 E.0193
G1 X136.803 Y139.053 E.01723
;WIDTH:0.43785
G1 X136.844 Y138.43 E.02049
;WIDTH:0.439806
G1 X136.849 Y138.391 E.00129
G1 X136.61 Y138.993 E.02135
;WIDTH:0.419999
G1 X136.276 Y139.522 E.01963
G1 X135.834 Y140.163 E.02441
G1 X135.387 Y140.581 E.01917
G1 X134.818 Y141.086 E.02387
G1 X134.705 Y141.163 E.00428
G1 X133.61 Y141.738 E.03878
G1 X133.482 Y141.787 E.00428
G1 X132.281 Y142.082 E.03879
G1 X132.146 Y142.098 E.00428
G1 X130.908 Y142.097 E.03879
G1 X130.773 Y142.081 E.00428
G1 X129.572 Y141.783 E.03879
G1 X129.444 Y141.734 E.00428
G1 X128.365 Y141.165 E.03826
G1 X128.526 Y140.824 F9000
;TYPE:External perimeter
G1 F1200
G1 X127.535 Y139.941 E.04162
G1 X126.814 Y138.881 E.0402
G1 X126.379 Y137.723 E.03878
G1 X126.224 Y136.404 E.04164
G1 X126.389 Y135.133 E.04018
G1 X126.854 Y133.939 E.0402
G1 X127.592 Y132.89 E.0402
G1 X128.559 Y132.05 E.04016
G1 X129.631 Y131.494 E.03786
G1 X130.902 Y131.178 E.04108
G1 X132.188 Y131.181 E.04032
G1 X132.94 Y131.361 E.02425
G1 X133.399 Y131.48 E.01487
G1 X134.499 Y132.047 E.03881
G1 X135.467 Y132.886 E.04016
G1 X136.24 Y134.001 E.04254
G1 X136.674 Y135.128 E.03786
G1 X136.84 Y136.394 E.04003
G1 X136.763 Y137.07 E.02133
G1 X136.683 Y137.721 E.02057
G1 X136.244 Y138.894 E.03928
G1 X135.709 Y139.68 E.0298
G1 X135.445 Y140.026 E.01365
G1 X134.568 Y140.804 E.03677
G1 X133.392 Y141.42 E.04161
G1 X132.191 Y141.716 E.03879
G1 X130.909 Y141.72 E.04021
G1 X129.663 Y141.417 E.04021
G1 X128.579 Y140.852 E.03832
G1 X128.165 Y140.995 F9000
G1 E-3.5 F3600
;WIPE_START
G1 F7200
G1 X127.535 Y139.941 E-.65823
G1 X126.814 Y138.881 E-.60904
G1 X126.697 Y138.57 E-.15773
;WIPE_END
G1 E-.075 F3600
G1 X136.113 Y131.89 F9000
G1 E5 F2400
G1 F1200
G1 X136.174 Y131.404 E.01537
G1 X136.33 Y131.006 E.0134
G1 X136.583 Y130.65 E.01368
G1 X136.913 Y130.365 E.01368
G1 X137.302 Y130.167 E.01368
G1 X137.727 Y130.068 E.01368
G1 X138.163 Y130.074 E.01368
G1 X138.585 Y130.184 E.01368
G1 X138.969 Y130.391 E.01368
G1 X139.292 Y130.684 E.01368
G1 X139.535 Y131.047 E.01368
G1 X139.673 Y131.425 E.01262
G1 X139.732 Y131.89 E.0147
G1 X139.674 Y132.323 E.01368
G1 X139.514 Y132.728 E.01368
G1 X139.262 Y133.084 E.01368
G1 X138.931 Y133.37 E.01368
G1 X138.543 Y133.567 E.01368
G1 X138.01 Y133.666 E.01699
G1 X137.681 Y133.661 E.01029
G1 X137.259 Y133.551 E.01368
G1 X136.876 Y133.344 E.01368
G1 X136.553 Y133.05 E.01368
G1 X136.309 Y132.688 E.01368
G1 X136.16 Y132.278 E.01368
G1 X136.12 Y131.95 E.01038
G1 X135.767 Y131.689 F9000
G1 X136.286 Y133.357
;TYPE:Perimeter
;WIDTH:0.477516
G1 F1200
G1 X135.93 Y132.832 E.02292
G1 E-3.5 F3600
;WIPE_START
G1 F7200
G1 X136.286 Y133.357 E-.30125
;WIPE_END
G1 E-1.19875 F3600
G1 X140.074 Y137.077 F9000
G1 E5 F2400
;TYPE:External perimeter
;WIDTH:0.419999
G1 F1200
G1 X140.421 Y137.265 E.01236
G1 X140.789 Y137.599 E.01557
G1 X141.066 Y138.01 E.01557
G1 X141.237 Y138.477 E.01557
G1 X141.292 Y138.97 E.01557
G1 X141.226 Y139.462 E.01557
G1 X141.045 Y139.925 E.01557
G1 X140.759 Y140.33 E.01557
G1 X140.383 Y140.655 E.01557
G1 X139.941 Y140.881 E.01557
G1 X139.458 Y140.995 E.01557
G1 X138.961 Y140.989 E.01557
G1 X138.481 Y140.865 E.01557
G1 X138.044 Y140.629 E.01557
G1 X137.639 Y140.243 E.01754
G1 X137.398 Y139.884 E.01355
G1 X137.227 Y139.418 E.01557
G1 X137.173 Y138.97 E.01415
G1 X137.229 Y138.464 E.01597
G1 X137.414 Y137.978 E.01631
G1 X137.706 Y137.565 E.01586
G1 X138.081 Y137.24 E.01557
G1 X138.523 Y137.014 E.01557
G1 X139.006 Y136.9 E.01557
G1 X139.503 Y136.906 E.01557
G1 X140.017 Y137.06 E.01682
G1 X140.386 Y136.835 F9000
G1 E-3.5 F3600
;WIPE_START
G1 F7200
G1 X140.421 Y137.265 E-.2153
G1 X140.789 Y137.599 E-.23585
G1 X141.066 Y138.01 E-.23585
G1 X141.237 Y138.477 E-.23585
G1 X141.292 Y138.97 E-.23585
G1 X141.226 Y139.462 E-.23585
G1 X141.203 Y139.522 E-.03045
;WIPE_END
G1 E-.075 F3600
G1 X136.849 Y138.391 F9000
G1 E5 F2400
;TYPE:Perimeter
;WIDTH:0.439806
G1 F1200
G1 X137.03 Y137.901 E.01726
;WIDTH:0.431816
G1 X137.04 Y137.875 E.0009
G1 E-3.5 F3600
;WIPE_START
G1 F7200
G1 X137.03 Y137.901 E-.01316
G1 X136.849 Y138.391 E-.24849
;WIPE_END
G1 E-1.23835 F3600
G1 X113.745 Y137.832 F9000
G1 E5 F2400
;WIDTH:0.419999
G1 F1200
G1 X113.297 Y139.028 E.04007
G1 X113.233 Y139.149 E.00428
G1 X112.532 Y140.165 E.03872
G1 X112.441 Y140.268 E.00428
G1 X111.517 Y141.086 E.03872
G1 X111.405 Y141.164 E.00428
G1 X110.311 Y141.738 E.03872
G1 X110.184 Y141.786 E.00428
G1 X108.985 Y142.082 E.03872
G1 X108.85 Y142.098 E.00428
G1 X107.615 Y142.098 E.03872
G1 X107.479 Y142.082 E.00428
G1 X106.28 Y141.786 E.03872
G1 X106.153 Y141.738 E.00428
G1 X105.059 Y141.164 E.03872
G1 X104.947 Y141.086 E.00428
G1 X104.023 Y140.268 E.03872
G1 X103.231 Y139.149 E.04297
G1 X102.728 Y137.869 E.04313
G1 X102.64 Y137.269 E.01902
G1 X102.548 Y136.516 E.02379
G1 X102.697 Y135.153 E.04297
G1 X102.73 Y135.021 E.00428
G1 X103.168 Y133.866 E.03872
G1 X103.231 Y133.746 E.00428
G1 X103.933 Y132.729 E.03872
G1 X104.023 Y132.627 E.00428
G1 X104.947 Y131.808 E.03872
G1 X105.059 Y131.731 E.00428
G1 X106.153 Y131.157 E.03872
G1 X106.28 Y131.109 E.00428
G1 X107.479 Y130.813 E.03872
G1 X107.615 Y130.797 E.00428
G1 X108.85 Y130.797 E.03872
G1 X108.985 Y130.813 E.00428
G1 X110.184 Y131.109 E.03872
G1 X110.311 Y131.157 E.00428
G1 X111.405 Y131.731 E.03872
G1 X111.517 Y131.808 E.00428
G1 X112.441 Y132.627 E.03872
G1 X112.532 Y132.729 E.00428
G1 X113.233 Y133.746 E.03872
G1 X113.297 Y133.866 E.00428
G1 X113.735 Y135.021 E.03872
G1 X113.767 Y135.153 E.00428
G1 X113.916 Y136.379 E.03872
G1 X113.915 Y136.523 E.00451
G1 X113.759 Y137.773 E.0395
G1 X113.382 Y137.74 F9000
;TYPE:External perimeter
G1 F1200
G1 X112.923 Y138.935 E.04013
G1 X112.191 Y139.985 E.04013
G1 X111.267 Y140.804 E.03872
G1 X110.136 Y141.404 E.04013
G1 X108.85 Y141.721 E.04155
G1 X107.615 Y141.721 E.03872
G1 X106.371 Y141.42 E.04013
G1 X105.197 Y140.804 E.04155
G1 X104.273 Y139.985 E.03872
G1 X103.541 Y138.935 E.04013
G1 X103.082 Y137.739 E.04019
G1 X103.014 Y137.223 E.01629
G1 X102.923 Y136.47 E.02379
G1 X103.071 Y135.199 E.04013
G1 X103.541 Y133.96 E.04155
G1 X104.243 Y132.944 E.03872
G1 X105.197 Y132.091 E.04013
G1 X106.371 Y131.475 E.04155
G1 X107.615 Y131.174 E.04013
G1 X108.895 Y131.179 E.04013
G1 X110.136 Y131.491 E.04013
G1 X111.23 Y132.065 E.03872
G1 X112.221 Y132.944 E.04155
G1 X112.944 Y134 E.04013
G1 X113.382 Y135.155 E.03872
G1 X113.542 Y136.425 E.04013
G1 X113.395 Y137.682 E.03968
G1 X113.67 Y138.018 F9000
G1 E-3.5 F3600
;WIPE_START
G1 F7200
G1 X112.923 Y138.935 E-.63614
G1 X112.191 Y139.985 E-.60799
G1 X111.906 Y140.238 E-.18087
;WIPE_END
G1 E-.075 F3600
G1 X98.888 Y141.346 F9000
G1 E5 F2400
;TYPE:Perimeter
G1 F1200
G1 X98.433 Y141.247 E.01462
G1 X97.906 Y140.989 E.0184
G1 X97.456 Y140.612 E.0184
G1 X97.109 Y140.139 E.0184
G1 X96.885 Y139.596 E.0184
G1 X96.798 Y139.016 E.0184
G1 X96.853 Y138.431 E.0184
G1 X97.045 Y137.877 E.0184
G1 X97.365 Y137.385 E.0184
G1 X97.793 Y136.983 E.0184
G1 X98.305 Y136.696 E.0184
G1 X98.871 Y136.54 E.0184
G1 X99.458 Y136.523 E.0184
G1 X100.031 Y136.648 E.0184
G1 X100.559 Y136.906 E.0184
G1 X101.009 Y137.282 E.0184
G1 X101.356 Y137.756 E.0184
G1 X101.579 Y138.299 E.0184
G1 X101.666 Y138.879 E.0184
G1 X101.612 Y139.464 E.0184
G1 X101.419 Y140.018 E.0184
G1 X101.099 Y140.51 E.0184
G1 X100.671 Y140.912 E.0184
G1 X100.159 Y141.199 E.0184
G1 X99.593 Y141.355 E.0184
G1 X99.006 Y141.372 E.0184
G1 X98.947 Y141.359 E.0019
G1 X98.961 Y140.989 F9000
;TYPE:External perimeter
G1 F1200
G1 X98.384 Y140.814 E.01893
G1 X98.005 Y140.595 E.01371
G1 X97.676 Y140.296 E.01395
G1 X97.398 Y139.884 E.01557
G1 X97.227 Y139.418 E.01557
G1 X97.173 Y138.97 E.01415
G1 X97.238 Y138.432 E.01698
G1 X97.419 Y137.97 E.01557
G1 X97.706 Y137.565 E.01557
G1 X98.081 Y137.24 E.01557
G1 X98.523 Y137.014 E.01557
G1 X99.006 Y136.9 E.01557
G1 X99.503 Y136.906 E.01557
G1 X99.984 Y137.03 E.01557
G1 X100.421 Y137.265 E.01557
G1 X100.789 Y137.599 E.01557
G1 X101.066 Y138.01 E.01557
G1 X101.237 Y138.477 E.01557
G1 X101.292 Y138.97 E.01557
G1 X101.226 Y139.462 E.01557
G1 X101.027 Y139.951 E.01656
G1 X100.759 Y140.33 E.01455
G1 X100.383 Y140.655 E.01557
G1 X99.941 Y140.881 E.01557
G1 X99.458 Y140.995 E.01557
G1 X99.021 Y140.99 E.01369
G1 X98.709 Y141.299 F9000
G1 E-3.5 F3600
;WIPE_START
G1 F7200
G1 X98.384 Y140.814 E-.31422
G1 X98.005 Y140.595 E-.2077
G1 X97.676 Y140.296 E-.2114
G1 X97.398 Y139.884 E-.23585
G1 X97.227 Y139.418 E-.23585
G1 X97.173 Y138.97 E-.2144
G1 X97.174 Y138.959 E-.00557
;WIPE_END
G1 E-.075 F3600
G1 X106.069 Y103.029 F9000
G1 E5 F2400
;TYPE:Perimeter
G1 F1200
G1 X104.926 Y102.322 E.04216
G1 X104.827 Y102.243 E.00397
G1 X103.937 Y101.353 E.03947
G1 X103.858 Y101.254 E.00397
G1 X103.188 Y100.188 E.03947
G1 X103.133 Y100.074 E.00397
G1 X102.717 Y98.885 E.03947
G1 X102.548 Y97.511 E.04342
G1 X102.689 Y96.133 E.04342
G1 X103.133 Y94.82 E.04347
G1 X103.858 Y93.641 E.04338
G1 X104.428 Y93.05 E.02575
G1 X104.926 Y92.573 E.02162
G1 X105.992 Y91.903 E.03947
G1 X106.106 Y91.848 E.00397
G1 X107.294 Y91.432 E.03947
G1 X107.418 Y91.404 E.00397
G1 X108.662 Y91.264 E.03926
G1 X130.801 Y91.264 E.69415
G1 X132.035 Y91.402 E.03894
G1 X132.158 Y91.43 E.00394
G1 X133.337 Y91.839 E.03915
G1 X133.451 Y91.893 E.00394
G1 X134.511 Y92.553 E.03915
G1 X135.54 Y93.559 E.04514
G1 X135.886 Y94.083 E.01968
;WIDTH:0.449816
G1 X136.08 Y94.364 E.01156
;WIDTH:0.479633
G1 X136.275 Y94.645 E.0124
;WIDTH:0.507418
G1 X136.322 Y94.716 E.00329
;WIDTH:0.535203
G1 X136.37 Y94.787 E.00348
;WIDTH:0.546125
G1 X136.572 Y95.337 E.02454
G1 X136.611 Y95.51 E.00743
;WIDTH:0.504083
G1 X136.651 Y95.683 E.00681
;WIDTH:0.462041
G1 X136.69 Y95.856 E.00618
;WIDTH:0.419999
G1 X136.778 Y96.148 E.00956
G1 X136.916 Y97.4 E.03949
G1 X136.765 Y98.823 E.04485
G1 X136.326 Y100.084 E.04187
G1 X136.271 Y100.198 E.00396
G1 X135.6 Y101.262 E.03945
G1 X134.632 Y102.247 E.04332
G1 X134.533 Y102.326 E.00396
G1 X133.468 Y102.994 E.0394
G1 X133.354 Y103.049 E.00396
G1 X132.168 Y103.463 E.03941
G1 X130.769 Y103.634 E.04417
G1 X108.725 Y103.634 E.69117
G1 X107.418 Y103.491 E.04125
G1 X107.294 Y103.463 E.00397
G1 X106.124 Y103.053 E.03886
G1 X106.231 Y102.691 F9000
;TYPE:External perimeter
G1 F1200
G1 X105.093 Y101.976 E.04211
G1 X104.203 Y101.086 E.03947
G1 X103.507 Y99.987 E.04079
G1 X103.073 Y98.761 E.04079
G1 X102.923 Y97.469 E.04079
