; generated by PrusaSlicer 2.5.0+linux-x64-GTK3 on 2023-01-20 at 16:52:03 UTC

; 

; external perimeters extrusion width = 0.42mm
; perimeters extrusion width = 0.44mm
; infill extrusion width = 0.44mm
; solid infill extrusion width = 0.44mm
; top infill extrusion width = 0.40mm
; support material extrusion width = 0.36mm
; first layer extrusion width = 0.42mm

M107
;TYPE:Custom
G90 ; use absolute coordinates
M83 ; extruder relative mode
M140 S70 ; set final bed temp
M104 S150 ; set temporary nozzle temp to prevent oozing during homing and auto bed leveling
G4 S10 ; allow partial nozzle warmup
G28 ; home all axis
G29 ; auto bed levelling
G1 Z50 F240
G1 X2 Y10 F3000
M104 S205 ; set final nozzle temp
M190 S70 ; wait for bed temp to stabilize
M109 S205 ; wait for nozzle temp to stabilize
G1 Z0.28 F240
G92 E0
G1 Y140 E10 F1500 ; prime the nozzle
G1 X2.3 F5000
G92 E0
G1 Y10 E10 F1200 ; prime the nozzle
G92 E0
G21 ; set units to millimeters
G90 ; use absolute coordinates
M83 ; use relative distances for extrusion
; Filament gcode
M107
;LAYER_CHANGE
;Z:0.16
;HEIGHT:0.16
;BEFORE_LAYER_CHANGE
G92 E0
;0.16


G1 E-5 F3600
G1 Z.16 F9000
;AFTER_LAYER_CHANGE
;0.16
G1 X78.314 Y76.984
G1 E5 F2400
M204 S500
;TYPE:Skirt/Brim
;WIDTH:0.42
G1 F1200
G1 X78.976 Y76.31 E.02423
G1 X80.857 Y74.797 E.06193
G1 X81.805 Y74.201 E.02872
G1 X83.9 Y73.192 E.05966
G1 X84.957 Y72.823 E.02872
G1 X87.225 Y72.305 E.05966
G1 X89.5 Y72.114 E.05858
G1 X129.5 Y72.114 E1.02618
G1 X130.663 Y72.18 E.02988
G1 X131.775 Y72.305 E.02872
G1 X134.043 Y72.823 E.05966
G1 X135.1 Y73.192 E.02872
G1 X137.195 Y74.201 E.05966
G1 X138.105 Y74.773 E.02757
G1 X139.86 Y76.161 E.05739
G1 X140.69 Y76.976 E.02985
G1 X142.203 Y78.857 E.06193
G1 X142.799 Y79.805 E.02872
G1 X143.808 Y81.9 E.05966
G1 X144.177 Y82.957 E.02872
G1 X144.695 Y85.225 E.05966
G1 X145.829 Y95.912 E.27573
G1 X145.886 Y97 E.02794
G1 X145.871 Y114.561 E.45051
G1 X144.871 Y133.061 E.4753
G1 X144.695 Y134.775 E.04422
G1 X144.177 Y137.043 E.05966
G1 X143.808 Y138.1 E.02872
G1 X142.799 Y140.195 E.05966
G1 X142.227 Y141.105 E.02757
G1 X140.839 Y142.86 E.05739
G1 X140.024 Y143.69 E.02985
G1 X138.143 Y145.203 E.06193
G1 X137.195 Y145.799 E.02872
G1 X135.1 Y146.808 E.05966
G1 X134.043 Y147.177 E.02872
G1 X131.775 Y147.695 E.05966
G1 X130.663 Y147.82 E.02872
G1 X129.5 Y147.886 E.02988
G1 X89.5 Y147.886 E1.02618
G1 X87.225 Y147.695 E.05858
G1 X84.957 Y147.177 E.05966
G1 X83.9 Y146.808 E.02872
G1 X81.805 Y145.799 E.05966
G1 X80.895 Y145.227 E.02757
G1 X79.14 Y143.839 E.05739
G1 X78.31 Y143.024 E.02985
G1 X76.797 Y141.143 E.06193
G1 X76.201 Y140.195 E.02872
G1 X75.192 Y138.1 E.05966
G1 X74.823 Y137.043 E.02872
G1 X74.305 Y134.775 E.05966
G1 X74.185 Y133.707 E.02757
G1 X74.119 Y132.546 E.02985
G1 X74.114 Y87.501 E1.15559
G1 X74.305 Y85.225 E.05861
G1 X74.823 Y82.957 E.05966
G1 X75.192 Y81.9 E.02872
G1 X76.201 Y79.805 E.05966
G1 X76.773 Y78.895 E.02757
G1 X78.161 Y77.14 E.05739
G1 X78.272 Y77.027 E.00408
G1 E-3.5 F3600
;WIPE_START
G1 F7200
G1 X78.976 Y76.31 E-.4771
G1 X80.531 Y75.059 E-.9479
;WIPE_END
G1 E-.075 F3600
G1 X87.701 Y90.325 F9000
G1 E5 F2400
;TYPE:Perimeter
;WIDTH:0.419999
G1 F1200
G1 X87.617 Y90.304 E.00221
G1 X85.196 Y90.304 E.06212
G1 X85.196 Y87.539 E.07094
G1 X85.308 Y86.543 E.02571
G1 X85.626 Y85.634 E.0247
G1 X86.138 Y84.819 E.0247
G1 X86.819 Y84.138 E.0247
G1 X87.634 Y83.626 E.0247
G1 X88.543 Y83.308 E.0247
G1 X89.539 Y83.196 E.02571
G1 X129.461 Y83.196 E1.02417
G1 X130.457 Y83.308 E.02571
G1 X131.366 Y83.626 E.0247
G1 X132.181 Y84.138 E.0247
G1 X132.862 Y84.819 E.0247
G1 X133.374 Y85.634 E.0247
G1 X133.692 Y86.543 E.0247
G1 X133.804 Y87.539 E.02571
G1 X133.804 Y97.106 E.24543
G1 X133.874 Y97.392 E.00755
G1 X134.068 Y97.602 E.00734
G1 X134.383 Y97.696 E.00843
G1 X134.804 Y97.696 E.01081
G1 X134.804 Y113.304 E.40043
G1 X134.383 Y113.304 E.01081
G1 X134.082 Y113.389 E.00802
G1 X133.869 Y113.618 E.00802
G1 X133.804 Y113.883 E.007
G1 X133.804 Y132.461 E.47661
G1 X133.692 Y133.457 E.02571
G1 X133.374 Y134.366 E.0247
G1 X132.862 Y135.181 E.0247
G1 X132.181 Y135.862 E.0247
G1 X131.366 Y136.374 E.0247
G1 X130.457 Y136.692 E.0247
G1 X129.461 Y136.804 E.02571
G1 X89.539 Y136.804 E1.02417
G1 X88.543 Y136.692 E.02571
G1 X87.634 Y136.374 E.0247
G1 X86.819 Y135.862 E.0247
G1 X86.138 Y135.181 E.0247
G1 X85.626 Y134.366 E.0247
G1 X85.308 Y133.457 E.0247
G1 X85.196 Y132.461 E.02571
G1 X85.196 Y129.696 E.07094
G1 X87.617 Y129.696 E.06212
G1 X87.886 Y129.629 E.0071
G1 X88.116 Y129.41 E.00816
G1 X88.196 Y129.117 E.00778
G1 X88.196 Y90.883 E.98088
G1 X88.116 Y90.59 E.00778
G1 X88.032 Y90.479 E.00358
G1 X87.886 Y90.371 E.00466
G1 X87.759 Y90.339 E.00336
G1 X87.617 Y90.69 F9000
;TYPE:External perimeter
G1 F1200
G1 X84.81 Y90.69 E.07202
G1 X84.81 Y87.517 E.08139
G1 X84.929 Y86.457 E.02738
G1 X85.276 Y85.466 E.02693
G1 X85.835 Y84.577 E.02693
G1 X86.577 Y83.835 E.02693
G1 X87.466 Y83.276 E.02693
G1 X88.457 Y82.929 E.02693
G1 X89.517 Y82.81 E.02738
G1 X129.483 Y82.81 E1.02528
G1 X130.543 Y82.929 E.02738
G1 X131.534 Y83.276 E.02693
G1 X132.423 Y83.835 E.02693
G1 X133.165 Y84.577 E.02693
G1 X133.724 Y85.466 E.02693
G1 X134.071 Y86.457 E.02693
G1 X134.19 Y87.517 E.02738
G1 X134.19 Y97.106 E.24599
G1 X134.237 Y97.243 E.00373
G1 X134.383 Y97.31 E.00411
G1 X135.19 Y97.31 E.02071
G1 X135.19 Y113.69 E.42022
G1 X134.383 Y113.69 E.02071
G1 X134.241 Y113.752 E.00397
G1 X134.19 Y113.883 E.0036
G1 X134.19 Y132.483 E.47717
G1 X134.071 Y133.543 E.02738
G1 X133.724 Y134.534 E.02693
G1 X133.165 Y135.423 E.02693
G1 X132.423 Y136.165 E.02693
G1 X131.534 Y136.724 E.02693
G1 X130.543 Y137.071 E.02693
G1 X129.483 Y137.19 E.02738
G1 X89.517 Y137.19 E1.02528
G1 X88.457 Y137.071 E.02738
G1 X87.466 Y136.724 E.02693
G1 X86.577 Y136.165 E.02693
G1 X85.835 Y135.423 E.02693
G1 X85.276 Y134.534 E.02693
G1 X84.929 Y133.543 E.02693
G1 X84.81 Y132.483 E.02738
G1 X84.81 Y129.31 E.08139
G1 X87.617 Y129.31 E.07202
G1 X87.755 Y129.252 E.00385
G1 X87.81 Y129.117 E.00373
G1 X87.81 Y90.883 E.98088
G1 X87.755 Y90.748 E.00373
G1 X87.672 Y90.713 E.00231
G1 X87.514 Y90.304 F9000
G1 X89.155 Y89.907
;TYPE:Perimeter
G1 F1200
G1 X88.699 Y89.808 E.01196
G1 X88.17 Y89.55 E.01511
G1 X87.718 Y89.172 E.01511
G1 X87.37 Y88.697 E.01511
G1 X87.145 Y88.152 E.01511
G1 X87.058 Y87.57 E.01511
G1 X87.112 Y86.983 E.01511
G1 X87.305 Y86.427 E.01511
G1 X87.626 Y85.933 E.01511
G1 X88.017 Y85.563 E.0138
G1 X88.472 Y85.292 E.0136
G1 X88.699 Y85.192 E.00636
G1 X89.21 Y85.071 E.01347
G1 X89.725 Y85.067 E.01321
G1 X90.301 Y85.192 E.01511
G1 X90.83 Y85.45 E.01511
G1 X91.282 Y85.828 E.01511
G1 X91.63 Y86.303 E.01511
G1 X91.855 Y86.848 E.01511
G1 X91.942 Y87.43 E.01511
G1 X91.888 Y88.017 E.01511
G1 X91.695 Y88.573 E.01511
G1 X91.374 Y89.067 E.01511
G1 X90.945 Y89.47 E.01511
G1 X90.431 Y89.759 E.01511
G1 X89.864 Y89.916 E.01511
G1 X89.275 Y89.933 E.01511
G1 X89.214 Y89.92 E.00161
G1 X89.229 Y89.542 F9000
;TYPE:External perimeter
G1 F1200
G1 X88.748 Y89.417 E.01274
G1 X88.311 Y89.182 E.01274
G1 X87.943 Y88.848 E.01274
G1 X87.666 Y88.436 E.01274
G1 X87.495 Y87.97 E.01274
G1 X87.441 Y87.523 E.01155
G1 X87.497 Y87.014 E.01314
G1 X87.683 Y86.529 E.01331
G1 X87.974 Y86.117 E.01295
G1 X88.349 Y85.792 E.01274
G1 X88.791 Y85.566 E.01274
G1 X89.275 Y85.453 E.01274
G1 X89.771 Y85.458 E.01274
G1 X90.252 Y85.583 E.01274
G1 X90.689 Y85.818 E.01274
G1 X91.057 Y86.152 E.01274
G1 X91.334 Y86.564 E.01274
G1 X91.505 Y87.03 E.01274
G1 X91.559 Y87.523 E.01274
G1 X91.494 Y88.015 E.01274
G1 X91.313 Y88.478 E.01274
G1 X91.026 Y88.883 E.01274
G1 X90.623 Y89.223 E.01352
G1 X90.209 Y89.434 E.01194
G1 X89.725 Y89.547 E.01274
G1 X89.289 Y89.542 E.0112
G1 X88.985 Y89.859 F9000
G1 E-3.5 F3600
;WIPE_START
G1 F7200
G1 X88.748 Y89.417 E-.26361
G1 X88.311 Y89.182 E-.23584
G1 X87.943 Y88.848 E-.23584
G1 X87.666 Y88.436 E-.23584
G1 X87.495 Y87.97 E-.23584
G1 X87.441 Y87.523 E-.21391
G1 X87.442 Y87.515 E-.00412
;WIPE_END
G1 E-.075 F3600
G1 X92.837 Y91.326 F9000
G1 E5 F2400
;TYPE:Perimeter
G1 F1200
G1 X92.807 Y91.065 E.00674
G1 X92.948 Y89.685 E.03558
G1 X93.393 Y88.37 E.03563
G1 X94.118 Y87.19 E.03553
G1 X94.69 Y86.597 E.02113
G1 X95.19 Y86.118 E.01775
G1 X96.255 Y85.449 E.03227
G1 X96.371 Y85.392 E.00332
G1 X97.559 Y84.977 E.03227
G1 X97.685 Y84.948 E.00332
G1 X98.929 Y84.808 E.0321
G1 X121.07 Y84.808 E.56803
G1 X122.305 Y84.946 E.03188
G1 X122.431 Y84.975 E.0033
G1 X123.611 Y85.385 E.03205
G1 X123.727 Y85.441 E.0033
G1 X124.787 Y86.102 E.03205
G1 X125.812 Y87.103 E.03675
G1 X126.161 Y87.631 E.01624
;WIDTH:0.446086
G1 X126.356 Y87.917 E.00948
;WIDTH:0.472172
G1 X126.551 Y88.202 E.01008
;WIDTH:0.521542
G1 X126.641 Y88.338 E.00528
;WIDTH:0.532681
G1 X126.842 Y88.888 E.0194
G1 X126.884 Y89.06 E.00588
;WIDTH:0.495121
G1 X126.925 Y89.232 E.00543
;WIDTH:0.45756
G1 X126.967 Y89.405 E.00499
;WIDTH:0.419999
G1 X127.054 Y89.697 E.00783
G1 X127.192 Y90.949 E.0323
G1 X127.041 Y92.375 E.03679
G1 X126.603 Y93.637 E.03428
G1 X126.547 Y93.754 E.00332
G1 X125.876 Y94.818 E.03226
G1 X125.797 Y94.917 E.00327
G1 X124.95 Y95.764 E.03071
G1 X123.746 Y96.55 E.0369
G1 X123.625 Y96.609 E.00345
G1 X122.439 Y97.024 E.03223
G1 X121.038 Y97.195 E.03622
G1 X98.993 Y97.196 E.56553
G1 X97.685 Y97.052 E.03377
G1 X97.559 Y97.023 E.00332
G1 X96.371 Y96.608 E.03227
G1 X96.255 Y96.551 E.00332
G1 X95.19 Y95.882 E.03227
G1 X95.088 Y95.801 E.00332
G1 X94.199 Y94.912 E.03227
G1 X94.118 Y94.81 E.00332
G1 X93.449 Y93.745 E.03227
G1 X93.392 Y93.629 E.00332
G1 X92.977 Y92.441 E.03227
G1 X92.843 Y91.385 E.0273
G1 X93.19 Y91.022 F9000
;TYPE:External perimeter
G1 F1200
G1 X93.331 Y89.728 E.03337
G1 X93.757 Y88.498 E.03339
G1 X94.444 Y87.395 E.03336
G1 X94.963 Y86.87 E.01893
G1 X95.395 Y86.444 E.01555
G1 X96.499 Y85.756 E.03337
G1 X97.728 Y85.331 E.03337
G1 X98.993 Y85.19 E.03266
G1 X121.006 Y85.19 E.56471
G1 X122.262 Y85.33 E.03243
G1 X123.484 Y85.749 E.03315
G1 X124.583 Y86.429 E.03314
G1 X125.247 Y87.084 E.02393
G1 X125.595 Y87.455 E.01304
G1 X126.203 Y88.423 E.02933
G1 X126.661 Y89.696 E.03471
G1 X126.809 Y90.991 E.03344
G1 X126.656 Y92.324 E.03443
G1 X126.221 Y93.548 E.03333
G1 X125.524 Y94.644 E.03332
G1 X124.645 Y95.517 E.03177
G1 X123.498 Y96.245 E.03486
G1 X122.312 Y96.659 E.03223
G1 X121.006 Y96.81 E.03371
G1 X98.993 Y96.81 E.56473
G1 X97.728 Y96.669 E.03266
G1 X96.46 Y96.225 E.03447
G1 X95.361 Y95.529 E.03337
G1 X94.471 Y94.639 E.03227
G1 X93.756 Y93.501 E.03448
G1 X93.341 Y92.314 E.03227
G1 X93.197 Y91.081 E.03184
G1 X92.844 Y90.822 F9000
G1 E-3.5 F3600
;WIPE_START
G1 F7200
G1 X93.331 Y89.728 E-.64578
G1 X93.757 Y88.498 E-.61823
G1 X93.936 Y88.211 E-.16098
;WIPE_END
G1 E-.075 F3600
G1 X129.846 Y85.093 F9000
G1 E5 F2400
;TYPE:Perimeter
G1 F1200
G1 X130.301 Y85.192 E.01195
G1 X130.83 Y85.45 E.01511
G1 X131.282 Y85.828 E.01511
G1 X131.63 Y86.303 E.01511
G1 X131.855 Y86.848 E.01511
G1 X131.942 Y87.43 E.01511
G1 X131.888 Y88.017 E.01511
G1 X131.695 Y88.573 E.01511
G1 X131.374 Y89.067 E.01511
G1 X130.945 Y89.47 E.01511
G1 X130.431 Y89.759 E.01511
G1 X129.864 Y89.916 E.01511
G1 X129.275 Y89.933 E.01511
G1 X128.699 Y89.808 E.01511
G1 X128.17 Y89.55 E.01511
G1 X127.718 Y89.172 E.01511
;WIDTH:0.465224
G1 X127.525 Y88.947 E.00848
;WIDTH:0.510448
G1 X127.333 Y88.722 E.00938
;WIDTH:0.521542
G1 X127.098 Y88.17 E.01945
G1 X127.084 Y87.97 E.0065
;WIDTH:0.487695
G1 X127.071 Y87.77 E.00605
;WIDTH:0.453847
G1 X127.058 Y87.57 E.0056
;WIDTH:0.419999
G1 X127.112 Y86.983 E.01511
G1 X127.305 Y86.427 E.01511
G1 X127.607 Y85.959 E.01429
G1 X128.055 Y85.53 E.01592
G1 X128.569 Y85.241 E.01511
G1 X129.136 Y85.084 E.01511
G1 X129.725 Y85.067 E.01511
G1 X129.787 Y85.08 E.00162
G1 X129.771 Y85.458 F9000
;TYPE:External perimeter
G1 F1200
G1 X130.349 Y85.633 E.01547
G1 X130.727 Y85.852 E.01122
G1 X131.057 Y86.152 E.01143
G1 X131.334 Y86.564 E.01274
G1 X131.505 Y87.03 E.01274
G1 X131.559 Y87.523 E.01274
G1 X131.494 Y88.015 E.01274
G1 X131.313 Y88.478 E.01274
G1 X131.026 Y88.883 E.01274
G1 X130.651 Y89.208 E.01274
G1 X130.209 Y89.434 E.01274
G1 X129.725 Y89.547 E.01274
G1 X129.229 Y89.542 E.01274
G1 X128.748 Y89.417 E.01274
G1 X128.311 Y89.182 E.01274
G1 X127.943 Y88.848 E.01274
G1 X127.666 Y88.436 E.01274
G1 X127.494 Y87.963 E.01292
G1 X127.441 Y87.523 E.01137
G1 X127.496 Y87.021 E.01295
G1 X127.687 Y86.522 E.01371
G1 X127.974 Y86.117 E.01274
G1 X128.349 Y85.792 E.01274
G1 X128.791 Y85.566 E.01274
G1 X129.275 Y85.453 E.01274
G1 X129.711 Y85.458 E.0112
G1 X130.024 Y85.148 F9000
G1 E-3.5 F3600
;WIPE_START
G1 F7200
G1 X130.349 Y85.633 E-.31398
G1 X130.727 Y85.852 E-.2077
G1 X131.057 Y86.152 E-.21165
G1 X131.334 Y86.564 E-.23584
G1 X131.505 Y87.03 E-.23584
G1 X131.556 Y87.49 E-.21999
;WIPE_END
G1 E-.075 F3600
G1 X126.028 Y125.146 F9000
G1 E5 F2400
;TYPE:Perimeter
G1 F1200
G1 X126.044 Y124.972 E.00448
G1 X126.216 Y124.463 E.01378
G1 X126.503 Y124.018 E.01357
G1 X126.887 Y123.655 E.01357
G1 X127.347 Y123.395 E.01357
G1 X127.857 Y123.252 E.01357
G1 X128.385 Y123.235 E.01357
G1 X128.902 Y123.345 E.01357
G1 X129.378 Y123.576 E.01357
G1 X129.785 Y123.914 E.01357
G1 X130.099 Y124.339 E.01357
G1 X130.302 Y124.828 E.01357
G1 X130.382 Y125.35 E.01357
G1 X130.335 Y125.877 E.01357
G1 X130.164 Y126.377 E.01357
G1 X129.877 Y126.822 E.01357
G1 X129.493 Y127.185 E.01357
G1 X129.033 Y127.445 E.01357
G1 X128.523 Y127.588 E.01357
G1 X127.995 Y127.605 E.01357
G1 X127.478 Y127.495 E.01357
G1 X127.002 Y127.264 E.01357
;WIDTH:0.450588
G1 X126.789 Y127.106 E.00735
;WIDTH:0.481177
G1 X126.575 Y126.949 E.00789
;WIDTH:0.485099
G1 X126.254 Y126.519 E.01608
G1 X126.119 Y126.165 E.01138
;WIDTH:0.451132
G1 X125.998 Y125.49 E.01901
;WIDTH:0.419999
G1 X126.023 Y125.205 E.00732
G1 X126.381 Y125.443 F9000
;TYPE:External perimeter
G1 F1200
G1 X126.439 Y124.964 E.01237
G1 X126.599 Y124.559 E.01119
G1 X126.851 Y124.203 E.01119
G1 X127.181 Y123.918 E.01119
G1 X127.57 Y123.72 E.01119
G1 X127.995 Y123.621 E.01119
G1 X128.431 Y123.627 E.01119
G1 X128.853 Y123.736 E.01119
G1 X129.237 Y123.944 E.01119
G1 X129.56 Y124.238 E.01119
G1 X129.803 Y124.6 E.01119
G1 X129.952 Y125.01 E.01119
G1 X129.999 Y125.443 E.01119
G1 X129.941 Y125.876 E.01119
G1 X129.781 Y126.281 E.01119
G1 X129.529 Y126.637 E.01119
G1 X129.199 Y126.922 E.01119
G1 X128.81 Y127.12 E.01119
G1 X128.385 Y127.219 E.01119
G1 X127.902 Y127.202 E.0124
G1 X127.527 Y127.104 E.00996
G1 X127.12 Y126.875 E.01197
G1 X126.82 Y126.602 E.01039
G1 X126.572 Y126.227 E.01154
G1 X126.428 Y125.83 E.01084
G1 X126.388 Y125.503 E.00847
G1 X126.034 Y125.243 F9000
G1 E-3.5 F3600
;WIPE_START
G1 F7200
G1 X126.439 Y124.964 E-.25688
G1 X126.599 Y124.559 E-.20722
G1 X126.851 Y124.203 E-.20722
G1 X127.181 Y123.918 E-.20722
G1 X127.57 Y123.72 E-.20721
G1 X127.995 Y123.621 E-.20722
G1 X128.273 Y123.625 E-.13203
;WIPE_END
G1 E-.075 F3600
G1 X130.881 Y130.494 F9000
G1 E5 F2400
;TYPE:Perimeter
G1 F1200
G1 X130.945 Y130.53 E.00187
G1 X131.374 Y130.933 E.01511
G1 X131.695 Y131.427 E.01511
G1 X131.888 Y131.983 E.01511
G1 X131.943 Y132.565 E.01499
G1 X131.88 Y133.064 E.0129
G1 X131.695 Y133.573 E.01391
G1 X131.374 Y134.067 E.01511
G1 X130.983 Y134.437 E.0138
G1 X130.528 Y134.708 E.0136
G1 X130.301 Y134.808 E.00636
G1 X129.79 Y134.929 E.01347
G1 X129.275 Y134.933 E.01321
G1 X128.699 Y134.808 E.01511
G1 X128.17 Y134.55 E.01511
G1 X127.718 Y134.172 E.01511
G1 X127.37 Y133.697 E.01511
G1 X127.145 Y133.152 E.01511
G1 X127.058 Y132.57 E.01511
;WIDTH:0.445071
G1 X127.072 Y132.275 E.00806
;WIDTH:0.470142
G1 X127.087 Y131.98 E.00856
;WIDTH:0.47222
G1 X127.253 Y131.491 E.01504
G1 X127.439 Y131.212 E.00978
;WIDTH:0.44611
G1 X127.626 Y130.933 E.0092
;WIDTH:0.419999
G1 X128.055 Y130.53 E.01511
G1 X128.569 Y130.241 E.01511
G1 X129.136 Y130.084 E.01511
G1 X129.679 Y130.067 E.01392
G1 X130.23 Y130.174 E.01439
G1 X130.521 Y130.288 E.00804
G1 X130.829 Y130.464 E.00909
G1 X130.689 Y130.818 F9000
;TYPE:External perimeter
G1 F1200
G1 X131.057 Y131.152 E.01274
G1 X131.334 Y131.564 E.01274
G1 X131.505 Y132.03 E.01274
G1 X131.559 Y132.523 E.01274
G1 X131.494 Y133.015 E.01274
G1 X131.313 Y133.478 E.01274
G1 X131.026 Y133.883 E.01274
G1 X130.651 Y134.208 E.01274
G1 X130.209 Y134.434 E.01274
G1 X129.725 Y134.547 E.01274
